( pcb2gcode 2.0.0 )
( Software-independent Gcode )

G94 ( Millimeters per minute feed rate. )
G21 ( Units == Millimeters. )

G90 ( Absolute coordinates. )
G00 S15000 ( RPM spindle speed. )
G64 P0.01000 ( set maximum deviation from commanded toolpath )
G01 F40.00000 ( Feedrate. )


G00 Z10.00000 (Retract to tool change height)
T0
M5      (Spindle stop.)
G04 P1.00000 (Wait for spindle to stop)
(MSG, Change tool bit to mill diameter 0.50000mm)
M6      (Tool change.)
M0      (Temporary machine stop.)
M3 ( Spindle on clockwise. )
G04 P1.00000 (Wait for spindle to get up to speed)
G04 P0 ( dwell for no time -- G64 should not smooth over this point )
G00 Z2.00000 ( retract )

G00 X-1.98495 Y75.87629 ( rapid move to begin. )
G01 F20.00000
G01 Z-0.10000
G04 P0 ( dwell for no time -- G64 should not smooth over this point )
G01 F40.00000
G01 X-1.98495 Y75.87629
G01 X-1.98498 Y64.11173
G01 X-2.00052 Y63.99039
G01 X-2.03352 Y63.89821
G01 X-2.13141 Y63.75818
G01 X-12.56814 Y53.32145
G01 X-12.70820 Y53.22353
G01 X-12.84843 Y53.18099
G01 X-34.02825 Y53.17499
G01 X-34.19650 Y53.20479
G01 X-34.32576 Y53.27388
G01 X-35.12538 Y54.06501
G01 X-45.02459 Y54.06501
G01 X-45.78634 Y53.30497
G01 X-45.90818 Y53.22353
G01 X-46.04844 Y53.18099
G01 X-49.52827 Y53.17499
G01 X-49.69652 Y53.20479
G01 X-49.82575 Y53.27388
G01 X-50.62540 Y54.06501
G01 X-58.58789 Y54.06501
G01 X-59.34964 Y53.30497
G01 X-59.47148 Y53.22353
G01 X-59.61174 Y53.18099
G01 X-64.52826 Y53.17499
G01 X-64.69651 Y53.20479
G01 X-64.82575 Y53.27388
G01 X-65.62539 Y54.06501
G01 X-76.02458 Y54.06501
G01 X-76.78633 Y53.30497
G01 X-76.90820 Y53.22353
G01 X-77.04843 Y53.18099
G01 X-80.52826 Y53.17499
G01 X-80.69651 Y53.20479
G01 X-80.86364 Y53.30497
G01 X-82.02541 Y54.46501
G01 X-92.12458 Y54.46501
G01 X-93.26816 Y53.32142
G01 X-93.36496 Y53.24665
G01 X-93.50037 Y53.19056
G01 X-93.62170 Y53.17499
G01 X-97.02827 Y53.17499
G01 X-97.19650 Y53.20479
G01 X-97.36363 Y53.30497
G01 X-98.52540 Y54.46503
G01 X-107.61586 Y54.46503
G01 X-108.75944 Y53.32145
G01 X-108.85627 Y53.24665
G01 X-108.99165 Y53.19056
G01 X-109.11301 Y53.17499
G01 X-113.52827 Y53.17499
G01 X-113.69652 Y53.20479
G01 X-113.86365 Y53.30497
G01 X-114.83540 Y54.27499
G01 X-128.64592 Y54.28101
G01 X-128.78615 Y54.32356
G01 X-128.92618 Y54.42145
G01 X-130.42856 Y55.92381
G01 X-130.52645 Y56.06386
G01 X-130.56900 Y56.20410
G01 X-130.57499 Y58.88631
G01 X-130.54520 Y59.05453
G01 X-130.47611 Y59.18380
G01 X-123.62167 Y66.04505
G01 X-123.45454 Y66.14522
G01 X-123.28629 Y66.17502
G01 X-118.53298 Y66.17502
G01 X-118.36473 Y66.14522
G01 X-118.27624 Y66.10336
G01 X-118.17944 Y66.02856
G01 X-111.42388 Y59.26452
G01 X-111.37353 Y59.18054
G01 X-111.33099 Y59.04029
G01 X-111.32497 Y58.44697
G01 X-111.12240 Y58.30531
G01 X-110.97552 Y58.14219
G01 X-110.85639 Y57.92766
G01 X-110.79383 Y57.71748
G01 X-110.77498 Y57.52502
G01 X-110.79383 Y57.33254
G01 X-110.85639 Y57.12236
G01 X-110.97552 Y56.90783
G01 X-111.12240 Y56.74471
G01 X-111.29998 Y56.61568
G01 X-111.50051 Y56.52640
G01 X-111.68938 Y56.48487
G01 X-111.90861 Y56.47941
G01 X-112.17389 Y56.53577
G01 X-112.34999 Y56.61568
G01 X-112.54607 Y56.76323
G01 X-112.67445 Y56.90783
G01 X-112.79360 Y57.12236
G01 X-112.85613 Y57.33254
G01 X-112.87498 Y57.52502
G01 X-112.85613 Y57.71748
G01 X-112.79360 Y57.92766
G01 X-112.67445 Y58.14219
G01 X-112.52758 Y58.30531
G01 X-112.32499 Y58.44697
G01 X-112.32499 Y58.75989
G01 X-118.74009 Y65.17502
G01 X-123.07917 Y65.17502
G01 X-129.57500 Y58.67917
G01 X-129.57500 Y56.48449
G01 X-128.36555 Y55.27499
G01 X-114.60378 Y55.27380
G01 X-114.41475 Y55.22645
G01 X-114.29291 Y55.14502
G01 X-113.32116 Y54.17499
G01 X-109.32012 Y54.17499
G01 X-108.15835 Y55.33503
G01 X-107.99122 Y55.43521
G01 X-107.82299 Y55.46501
G01 X-98.24501 Y55.45901
G01 X-98.10478 Y55.41647
G01 X-97.98291 Y55.33503
G01 X-96.82116 Y54.17499
G01 X-93.82881 Y54.17499
G01 X-92.66707 Y55.33503
G01 X-92.49994 Y55.43521
G01 X-92.33169 Y55.46501
G01 X-81.74502 Y55.45901
G01 X-81.60476 Y55.41647
G01 X-81.48292 Y55.33503
G01 X-80.32117 Y54.17499
G01 X-77.32882 Y54.17499
G01 X-76.52918 Y54.96613
G01 X-76.39994 Y55.03521
G01 X-76.23169 Y55.06501
G01 X-65.39377 Y55.06379
G01 X-65.25003 Y55.03521
G01 X-65.08290 Y54.93504
G01 X-64.32115 Y54.17499
G01 X-59.89210 Y54.17499
G01 X-59.09249 Y54.96613
G01 X-58.96325 Y55.03521
G01 X-58.79500 Y55.06501
G01 X-50.39377 Y55.06379
G01 X-50.25003 Y55.03521
G01 X-50.08290 Y54.93504
G01 X-49.32116 Y54.17499
G01 X-46.32881 Y54.17499
G01 X-45.52919 Y54.96613
G01 X-45.39993 Y55.03521
G01 X-45.23171 Y55.06501
G01 X-34.89378 Y55.06379
G01 X-34.75001 Y55.03521
G01 X-34.58291 Y54.93504
G01 X-33.82116 Y54.17499
G01 X-13.12882 Y54.17499
G01 X-2.98498 Y64.31884
G01 X-2.98498 Y75.66921
G01 X-5.50082 Y78.18505
G01 X-14.71785 Y78.18505
G01 X-17.70684 Y75.19606
G01 X-17.64903 Y75.01371
G01 X-17.62635 Y74.75887
G01 X-17.64903 Y74.55631
G01 X-17.71070 Y74.36202
G01 X-17.85155 Y74.11811
G01 X-18.00928 Y73.95108
G01 X-18.17499 Y73.83238
G01 X-18.36064 Y73.74823
G01 X-18.58416 Y73.69512
G01 X-18.83996 Y73.69103
G01 X-19.03963 Y73.73208
G01 X-19.25167 Y73.82049
G01 X-19.46104 Y73.96756
G01 X-19.62917 Y74.16040
G01 X-19.72988 Y74.33761
G01 X-19.80095 Y74.55631
G01 X-19.82363 Y74.75887
G01 X-19.80504 Y74.98788
G01 X-19.71802 Y75.25575
G01 X-19.61492 Y75.43157
G01 X-19.47953 Y75.58397
G01 X-19.25167 Y75.74952
G01 X-19.03963 Y75.83794
G01 X-18.83996 Y75.87899
G01 X-18.61002 Y75.87899
G01 X-18.46709 Y75.85001
G01 X-15.27853 Y79.03859
G01 X-15.13850 Y79.13649
G01 X-15.04632 Y79.16946
G01 X-14.92496 Y79.18503
G01 X-5.29371 Y79.18503
G01 X-5.17237 Y79.16946
G01 X-5.03697 Y79.11337
G01 X-4.94014 Y79.03859
G01 X-2.13141 Y76.22984
G01 X-2.03352 Y76.08981
G01 X-2.00052 Y75.99763
G01 X-1.98495 Y75.87629
G04 P0 ( dwell for no time -- G64 should not smooth over this point )
G00 Z2.00000 ( retract )

G00 X-7.46498 Y71.39502 ( rapid move to begin. )
G01 F20.00000
G01 Z-0.10000
G04 P0 ( dwell for no time -- G64 should not smooth over this point )
G01 F40.00000
G01 X-7.46498 Y71.39502
G01 X-7.46498 Y73.09502
G01 X-7.48403 Y73.19068
G01 X-7.53821 Y73.27178
G01 X-7.61931 Y73.32598
G01 X-7.71499 Y73.34501
G01 X-9.41499 Y73.34501
G01 X-9.51067 Y73.32598
G01 X-9.59177 Y73.27178
G01 X-9.64595 Y73.19068
G01 X-9.66500 Y73.09502
G01 X-9.66500 Y71.39502
G01 X-9.64595 Y71.29934
G01 X-9.58499 Y71.21268
G01 X-9.58499 Y64.04360
G01 X-9.68870 Y63.92023
G01 X-9.79360 Y63.72765
G01 X-9.85205 Y63.54332
G01 X-9.87361 Y63.29887
G01 X-9.85205 Y63.10670
G01 X-9.79360 Y62.92237
G01 X-9.65799 Y62.68750
G01 X-9.52759 Y62.54470
G01 X-9.32667 Y62.40380
G01 X-9.14946 Y62.32641
G01 X-8.96058 Y62.28486
G01 X-8.74135 Y62.27939
G01 X-8.50051 Y62.32641
G01 X-8.32330 Y62.40380
G01 X-8.12241 Y62.54470
G01 X-7.99198 Y62.68750
G01 X-7.87765 Y62.87462
G01 X-7.79792 Y63.10670
G01 X-7.77636 Y63.29887
G01 X-7.80470 Y63.56860
G01 X-7.87765 Y63.77540
G01 X-7.99198 Y63.96253
G01 X-8.12241 Y64.10532
G01 X-8.27803 Y64.22008
G01 X-8.47610 Y64.31424
G01 X-8.58499 Y64.34297
G01 X-8.58499 Y71.14501
G01 X-7.66622 Y71.14981
G01 X-7.57610 Y71.18715
G01 X-7.50712 Y71.25611
G01 X-7.46498 Y71.39502
G04 P0 ( dwell for no time -- G64 should not smooth over this point )
G00 Z2.00000 ( retract )

G00 X-10.00635 Y72.21887 ( rapid move to begin. )
G01 F20.00000
G01 Z-0.10000
G04 P0 ( dwell for no time -- G64 should not smooth over this point )
G01 F40.00000
G01 X-10.00635 Y72.21887
G01 X-10.02903 Y72.01631
G01 X-10.09070 Y71.82202
G01 X-10.20081 Y71.62040
G01 X-10.38928 Y71.41108
G01 X-10.60498 Y71.26904
G01 X-10.60498 Y63.24500
G01 X-10.62055 Y63.12367
G01 X-10.65354 Y63.03149
G01 X-10.75143 Y62.89146
G01 X-15.77781 Y57.86508
G01 X-15.79793 Y57.60671
G01 X-15.85638 Y57.42238
G01 X-15.96128 Y57.22977
G01 X-16.12239 Y57.04471
G01 X-16.32331 Y56.90382
G01 X-16.50052 Y56.82640
G01 X-16.68940 Y56.78487
G01 X-16.96059 Y56.78487
G01 X-17.14947 Y56.82640
G01 X-17.32668 Y56.90382
G01 X-17.52757 Y57.04471
G01 X-17.65800 Y57.18751
G01 X-17.77232 Y57.37463
G01 X-17.85205 Y57.60671
G01 X-17.87362 Y57.85113
G01 X-17.85205 Y58.04331
G01 X-17.77232 Y58.27539
G01 X-17.65800 Y58.46251
G01 X-17.52757 Y58.60531
G01 X-17.32668 Y58.74623
G01 X-17.14947 Y58.82362
G01 X-16.96059 Y58.86518
G01 X-16.68940 Y58.86518
G01 X-16.50052 Y58.82362
G01 X-16.31508 Y58.74201
G01 X-11.60500 Y63.45211
G01 X-11.60500 Y71.26904
G01 X-11.67693 Y71.30663
G01 X-11.85953 Y71.44605
G01 X-11.99492 Y71.59845
G01 X-12.10988 Y71.79761
G01 X-12.18095 Y72.01631
G01 X-12.20363 Y72.21887
G01 X-12.18095 Y72.47371
G01 X-12.10988 Y72.69243
G01 X-12.00917 Y72.86962
G01 X-11.82070 Y73.07894
G01 X-11.65499 Y73.19764
G01 X-11.41963 Y73.29794
G01 X-11.21996 Y73.33899
G01 X-10.99002 Y73.33899
G01 X-10.79035 Y73.29794
G01 X-10.55499 Y73.19764
G01 X-10.36894 Y73.06248
G01 X-10.23155 Y72.91191
G01 X-10.09070 Y72.66799
G01 X-10.02903 Y72.47371
G01 X-10.00635 Y72.21887
G04 P0 ( dwell for no time -- G64 should not smooth over this point )
G00 Z2.00000 ( retract )

G00 X-12.54635 Y72.21887 ( rapid move to begin. )
G01 F20.00000
G01 Z-0.10000
G04 P0 ( dwell for no time -- G64 should not smooth over this point )
G01 F40.00000
G01 X-12.54635 Y72.21887
G01 X-12.56903 Y72.01631
G01 X-12.64008 Y71.79761
G01 X-12.75506 Y71.59845
G01 X-12.89044 Y71.44605
G01 X-13.09499 Y71.29238
G01 X-13.33035 Y71.19208
G01 X-13.53002 Y71.15103
G01 X-13.73383 Y71.14966
G01 X-13.98318 Y71.19972
G01 X-22.69749 Y62.49390
G01 X-22.82675 Y62.42481
G01 X-22.97049 Y62.39621
G01 X-23.98654 Y62.39502
G01 X-24.12240 Y62.24470
G01 X-24.32331 Y62.10380
G01 X-24.50053 Y62.02641
G01 X-24.74137 Y61.97940
G01 X-24.96060 Y61.98486
G01 X-25.14945 Y62.02641
G01 X-25.32667 Y62.10380
G01 X-25.52758 Y62.24470
G01 X-25.65798 Y62.38750
G01 X-25.77233 Y62.57462
G01 X-25.85204 Y62.80670
G01 X-25.87363 Y63.05115
G01 X-25.84526 Y63.26860
G01 X-25.77233 Y63.47540
G01 X-25.65798 Y63.66253
G01 X-25.50723 Y63.82178
G01 X-25.32667 Y63.94622
G01 X-25.17388 Y64.01424
G01 X-24.90861 Y64.07063
G01 X-24.68938 Y64.06517
G01 X-24.50053 Y64.02361
G01 X-24.32331 Y63.94622
G01 X-24.12240 Y63.80533
G01 X-23.96126 Y63.62024
G01 X-23.84577 Y63.39501
G01 X-23.20208 Y63.39501
G01 X-14.68767 Y71.90945
G01 X-14.72095 Y72.01631
G01 X-14.74363 Y72.21887
G01 X-14.71416 Y72.49898
G01 X-14.64988 Y72.69243
G01 X-14.54917 Y72.86962
G01 X-14.36070 Y73.07894
G01 X-14.19499 Y73.19764
G01 X-14.00934 Y73.28179
G01 X-13.75996 Y73.33899
G01 X-13.50416 Y73.33490
G01 X-13.33035 Y73.29794
G01 X-13.11831 Y73.20952
G01 X-12.89044 Y73.04397
G01 X-12.74081 Y72.86962
G01 X-12.65196 Y72.71575
G01 X-12.56903 Y72.47371
G01 X-12.54635 Y72.21887
G04 P0 ( dwell for no time -- G64 should not smooth over this point )
G00 Z2.00000 ( retract )

G00 X-15.08635 Y72.21887 ( rapid move to begin. )
G01 F20.00000
G01 Z-0.10000
G04 P0 ( dwell for no time -- G64 should not smooth over this point )
G01 F40.00000
G01 X-15.08635 Y72.21887
G01 X-15.10903 Y72.01631
G01 X-15.18008 Y71.79761
G01 X-15.29506 Y71.59845
G01 X-15.43044 Y71.44605
G01 X-15.63499 Y71.29238
G01 X-15.87035 Y71.19208
G01 X-16.07002 Y71.15103
G01 X-16.27383 Y71.14966
G01 X-16.52318 Y71.19972
G01 X-22.74750 Y64.98389
G01 X-22.87673 Y64.91480
G01 X-23.02047 Y64.88622
G01 X-24.70790 Y64.88500
G01 X-31.46605 Y58.12683
G01 X-31.35640 Y57.92766
G01 X-31.29793 Y57.74331
G01 X-31.27636 Y57.55113
G01 X-31.29384 Y57.33254
G01 X-31.37766 Y57.07463
G01 X-31.49198 Y56.88751
G01 X-31.62241 Y56.74471
G01 X-31.77804 Y56.62993
G01 X-32.00052 Y56.52640
G01 X-32.18939 Y56.48487
G01 X-32.40862 Y56.47941
G01 X-32.64943 Y56.52640
G01 X-32.84999 Y56.61568
G01 X-33.02756 Y56.74471
G01 X-33.15797 Y56.88751
G01 X-33.27232 Y57.07463
G01 X-33.34527 Y57.28144
G01 X-33.37359 Y57.55113
G01 X-33.34527 Y57.76861
G01 X-33.27232 Y57.97539
G01 X-33.17443 Y58.14219
G01 X-33.02756 Y58.30531
G01 X-32.82668 Y58.44623
G01 X-32.64943 Y58.52362
G01 X-32.43976 Y58.56736
G01 X-25.21247 Y65.78614
G01 X-25.08323 Y65.85521
G01 X-24.93949 Y65.88381
G01 X-23.25209 Y65.88500
G01 X-17.22767 Y71.90945
G01 X-17.26095 Y72.01631
G01 X-17.28363 Y72.21887
G01 X-17.25416 Y72.49898
G01 X-17.18988 Y72.69243
G01 X-17.08917 Y72.86962
G01 X-16.90070 Y73.07894
G01 X-16.73499 Y73.19764
G01 X-16.54934 Y73.28179
G01 X-16.29996 Y73.33899
G01 X-16.04416 Y73.33490
G01 X-15.87035 Y73.29794
G01 X-15.65831 Y73.20952
G01 X-15.43044 Y73.04397
G01 X-15.28081 Y72.86962
G01 X-15.19196 Y72.71575
G01 X-15.10903 Y72.47371
G01 X-15.08635 Y72.21887
G04 P0 ( dwell for no time -- G64 should not smooth over this point )
G00 Z2.00000 ( retract )

G00 X-17.62635 Y72.21887 ( rapid move to begin. )
G01 F20.00000
G01 Z-0.10000
G04 P0 ( dwell for no time -- G64 should not smooth over this point )
G01 F40.00000
G01 X-17.62635 Y72.21887
G01 X-17.64903 Y72.01631
G01 X-17.71070 Y71.82202
G01 X-17.82081 Y71.62040
G01 X-17.97044 Y71.44605
G01 X-18.17499 Y71.29238
G01 X-18.41035 Y71.19208
G01 X-18.61002 Y71.15103
G01 X-18.83996 Y71.15103
G01 X-19.06422 Y71.19866
G01 X-20.07143 Y70.19147
G01 X-20.16826 Y70.11667
G01 X-20.25675 Y70.07481
G01 X-20.42500 Y70.04501
G01 X-21.22622 Y70.04501
G01 X-28.24977 Y63.02146
G01 X-28.34660 Y62.94665
G01 X-28.43509 Y62.90482
G01 X-28.60334 Y62.87502
G01 X-39.50322 Y62.87502
G01 X-39.62239 Y62.74472
G01 X-39.77805 Y62.62994
G01 X-39.97609 Y62.53578
G01 X-40.18940 Y62.48486
G01 X-40.40860 Y62.47939
G01 X-40.67388 Y62.53578
G01 X-40.84998 Y62.61569
G01 X-41.00723 Y62.72824
G01 X-41.17446 Y62.90784
G01 X-41.29359 Y63.12237
G01 X-41.35615 Y63.33256
G01 X-41.37499 Y63.52501
G01 X-41.35615 Y63.71747
G01 X-41.29359 Y63.92765
G01 X-41.18871 Y64.12023
G01 X-41.02757 Y64.30532
G01 X-40.84998 Y64.43433
G01 X-40.64944 Y64.52361
G01 X-40.40860 Y64.57063
G01 X-40.18940 Y64.56517
G01 X-40.02580 Y64.53039
G01 X-39.77805 Y64.42008
G01 X-39.62239 Y64.30532
G01 X-39.47553 Y64.14218
G01 X-39.37764 Y63.97540
G01 X-39.33929 Y63.87502
G01 X-28.81045 Y63.87502
G01 X-21.76871 Y70.91504
G01 X-21.64687 Y70.99647
G01 X-21.50661 Y71.03902
G01 X-20.63208 Y71.04501
G01 X-19.76767 Y71.90945
G01 X-19.80095 Y72.01631
G01 X-19.82363 Y72.21887
G01 X-19.79416 Y72.49898
G01 X-19.72988 Y72.69243
G01 X-19.62917 Y72.86962
G01 X-19.44070 Y73.07894
G01 X-19.27499 Y73.19764
G01 X-19.08934 Y73.28179
G01 X-18.83996 Y73.33899
G01 X-18.58416 Y73.33490
G01 X-18.41035 Y73.29794
G01 X-18.19831 Y73.20952
G01 X-17.97044 Y73.04397
G01 X-17.82081 Y72.86962
G01 X-17.73196 Y72.71575
G01 X-17.64903 Y72.47371
G01 X-17.62635 Y72.21887
G04 P0 ( dwell for no time -- G64 should not smooth over this point )
G00 Z2.00000 ( retract )

G00 X-20.16635 Y72.21887 ( rapid move to begin. )
G01 F20.00000
G01 Z-0.10000
G04 P0 ( dwell for no time -- G64 should not smooth over this point )
G01 F40.00000
G01 X-20.16635 Y72.21887
G01 X-20.18903 Y72.01631
G01 X-20.26008 Y71.79761
G01 X-20.37506 Y71.59845
G01 X-20.51044 Y71.44605
G01 X-20.71499 Y71.29238
G01 X-20.95035 Y71.19208
G01 X-21.15002 Y71.15103
G01 X-21.35383 Y71.14966
G01 X-21.62129 Y71.20562
G01 X-25.90543 Y66.92145
G01 X-26.00225 Y66.84667
G01 X-26.13764 Y66.79059
G01 X-26.25900 Y66.77502
G01 X-38.80987 Y66.77502
G01 X-47.21245 Y58.37244
G01 X-47.12241 Y58.30531
G01 X-46.99198 Y58.16251
G01 X-46.87765 Y57.97539
G01 X-46.80470 Y57.76861
G01 X-46.77636 Y57.55113
G01 X-46.79383 Y57.33254
G01 X-46.85639 Y57.12236
G01 X-46.97552 Y56.90783
G01 X-47.12241 Y56.74471
G01 X-47.29998 Y56.61568
G01 X-47.50051 Y56.52640
G01 X-47.74135 Y56.47941
G01 X-47.96058 Y56.48487
G01 X-48.14945 Y56.52640
G01 X-48.37193 Y56.62993
G01 X-48.52758 Y56.74471
G01 X-48.65799 Y56.88751
G01 X-48.77234 Y57.07463
G01 X-48.84526 Y57.28144
G01 X-48.87498 Y57.52502
G01 X-48.85613 Y57.71748
G01 X-48.79360 Y57.92766
G01 X-48.67445 Y58.14219
G01 X-48.54608 Y58.28682
G01 X-48.34999 Y58.43434
G01 X-48.23500 Y58.48705
G01 X-48.22898 Y58.63030
G01 X-48.20518 Y58.72525
G01 X-48.10500 Y58.89238
G01 X-39.37055 Y67.62856
G01 X-39.23050 Y67.72645
G01 X-39.13832 Y67.75947
G01 X-39.01699 Y67.77504
G01 X-26.46608 Y67.77504
G01 X-22.31356 Y71.92756
G01 X-22.34504 Y72.04216
G01 X-22.36363 Y72.27115
G01 X-22.34095 Y72.47371
G01 X-22.27927 Y72.66799
G01 X-22.13843 Y72.91191
G01 X-21.98070 Y73.07894
G01 X-21.83693 Y73.18339
G01 X-21.57963 Y73.29794
G01 X-21.35383 Y73.34036
G01 X-21.15002 Y73.33899
G01 X-20.95035 Y73.29794
G01 X-20.71499 Y73.19764
G01 X-20.51044 Y73.04397
G01 X-20.36081 Y72.86962
G01 X-20.27196 Y72.71575
G01 X-20.18903 Y72.47371
G01 X-20.16635 Y72.21887
G04 P0 ( dwell for no time -- G64 should not smooth over this point )
G00 Z2.00000 ( retract )

G00 X-22.70635 Y74.75887 ( rapid move to begin. )
G01 F20.00000
G01 Z-0.10000
G04 P0 ( dwell for no time -- G64 should not smooth over this point )
G01 F40.00000
G01 X-22.70635 Y74.75887
G01 X-22.72903 Y74.55631
G01 X-22.79070 Y74.36202
G01 X-22.90081 Y74.16040
G01 X-23.05044 Y73.98605
G01 X-23.25499 Y73.83238
G01 X-23.49035 Y73.73208
G01 X-23.69002 Y73.69103
G01 X-23.89383 Y73.68966
G01 X-24.11963 Y73.73208
G01 X-24.35499 Y73.83238
G01 X-24.52070 Y73.95108
G01 X-24.67843 Y74.11811
G01 X-24.81927 Y74.36202
G01 X-24.88095 Y74.55631
G01 X-24.90363 Y74.75887
G01 X-24.88504 Y74.98788
G01 X-24.84767 Y75.12059
G01 X-26.81211 Y77.08503
G01 X-75.44788 Y77.08503
G01 X-94.44347 Y58.08941
G01 X-94.35640 Y57.92766
G01 X-94.29384 Y57.71748
G01 X-94.27499 Y57.52502
G01 X-94.29384 Y57.33254
G01 X-94.37763 Y57.07463
G01 X-94.47552 Y56.90783
G01 X-94.62241 Y56.74471
G01 X-94.79998 Y56.61568
G01 X-95.02579 Y56.51964
G01 X-95.18939 Y56.48487
G01 X-95.40862 Y56.47941
G01 X-95.64946 Y56.52640
G01 X-95.84999 Y56.61568
G01 X-96.04608 Y56.76323
G01 X-96.18870 Y56.92977
G01 X-96.29358 Y57.12236
G01 X-96.34527 Y57.28144
G01 X-96.37499 Y57.52502
G01 X-96.34527 Y57.76861
G01 X-96.29358 Y57.92766
G01 X-96.18870 Y58.12025
G01 X-96.04608 Y58.28682
G01 X-95.84999 Y58.43434
G01 X-95.67390 Y58.51425
G01 X-95.46059 Y58.56518
G01 X-95.37649 Y58.57064
G01 X-76.00853 Y77.93857
G01 X-75.91173 Y78.01337
G01 X-75.77632 Y78.06946
G01 X-75.65499 Y78.08503
G01 X-26.58049 Y78.08381
G01 X-26.39148 Y78.03646
G01 X-26.25145 Y77.93857
G01 X-24.14422 Y75.83136
G01 X-23.89383 Y75.88036
G01 X-23.69002 Y75.87899
G01 X-23.49035 Y75.83794
G01 X-23.25499 Y75.73764
G01 X-23.06894 Y75.60248
G01 X-22.90081 Y75.40962
G01 X-22.80008 Y75.23243
G01 X-22.72903 Y75.01371
G01 X-22.70635 Y74.75887
G04 P0 ( dwell for no time -- G64 should not smooth over this point )
G00 Z2.00000 ( retract )

G00 X-25.24635 Y74.75887 ( rapid move to begin. )
G01 F20.00000
G01 Z-0.10000
G04 P0 ( dwell for no time -- G64 should not smooth over this point )
G01 F40.00000
G01 X-25.24635 Y74.75887
G01 X-25.26903 Y74.55631
G01 X-25.33070 Y74.36202
G01 X-25.44081 Y74.16040
G01 X-25.59044 Y73.98605
G01 X-25.77304 Y73.84663
G01 X-25.98064 Y73.74823
G01 X-26.23002 Y73.69103
G01 X-26.45996 Y73.69103
G01 X-26.70934 Y73.74823
G01 X-26.89499 Y73.83238
G01 X-27.08104 Y73.96756
G01 X-27.24917 Y74.16040
G01 X-27.34988 Y74.33761
G01 X-27.42095 Y74.55631
G01 X-27.44363 Y74.75887
G01 X-27.42504 Y74.98788
G01 X-27.38767 Y75.12059
G01 X-28.25208 Y75.98501
G01 X-74.00787 Y75.98501
G01 X-85.79208 Y64.20080
G01 X-85.77498 Y64.02501
G01 X-85.79383 Y63.83255
G01 X-85.85639 Y63.62237
G01 X-85.97552 Y63.40784
G01 X-86.12240 Y63.24472
G01 X-86.32329 Y63.10380
G01 X-86.50051 Y63.02641
G01 X-86.68938 Y62.98485
G01 X-86.90861 Y62.97939
G01 X-87.14945 Y63.02641
G01 X-87.37193 Y63.12994
G01 X-87.52758 Y63.24472
G01 X-87.65799 Y63.38750
G01 X-87.79360 Y63.62237
G01 X-87.85613 Y63.83255
G01 X-87.87498 Y64.02501
G01 X-87.85613 Y64.21747
G01 X-87.79360 Y64.42765
G01 X-87.67445 Y64.64218
G01 X-87.52758 Y64.80532
G01 X-87.32667 Y64.94622
G01 X-87.14945 Y65.02361
G01 X-86.96058 Y65.06517
G01 X-86.68938 Y65.06517
G01 X-86.50051 Y65.02361
G01 X-86.41849 Y64.98861
G01 X-74.56853 Y76.83857
G01 X-74.42850 Y76.93646
G01 X-74.28826 Y76.97901
G01 X-28.04500 Y76.98500
G01 X-27.87675 Y76.95521
G01 X-27.70962 Y76.85503
G01 X-26.68318 Y75.83029
G01 X-26.45996 Y75.87899
G01 X-26.20416 Y75.87490
G01 X-26.03035 Y75.83794
G01 X-25.81831 Y75.74952
G01 X-25.62928 Y75.61894
G01 X-25.47155 Y75.45191
G01 X-25.34008 Y75.23243
G01 X-25.26903 Y75.01371
G01 X-25.24635 Y74.75887
G04 P0 ( dwell for no time -- G64 should not smooth over this point )
G00 Z2.00000 ( retract )

G00 X-27.78635 Y72.21887 ( rapid move to begin. )
G01 F20.00000
G01 Z-0.10000
G04 P0 ( dwell for no time -- G64 should not smooth over this point )
G01 F40.00000
G01 X-27.78635 Y72.21887
G01 X-27.80903 Y72.01631
G01 X-27.88008 Y71.79761
G01 X-27.99506 Y71.59845
G01 X-28.13044 Y71.44605
G01 X-28.35831 Y71.28049
G01 X-28.57035 Y71.19208
G01 X-28.79613 Y71.14966
G01 X-28.99996 Y71.15103
G01 X-29.19963 Y71.19208
G01 X-29.43499 Y71.29238
G01 X-29.63953 Y71.44605
G01 X-29.77492 Y71.59845
G01 X-29.86110 Y71.74501
G01 X-61.46787 Y71.74501
G01 X-69.33895 Y63.87396
G01 X-69.29384 Y63.71747
G01 X-69.27636 Y63.55115
G01 X-69.30471 Y63.28142
G01 X-69.37766 Y63.07462
G01 X-69.46127 Y62.92979
G01 X-69.62241 Y62.74472
G01 X-69.79998 Y62.61569
G01 X-70.02579 Y62.51963
G01 X-70.18939 Y62.48486
G01 X-70.40862 Y62.47939
G01 X-70.64946 Y62.52641
G01 X-70.87194 Y62.62994
G01 X-71.02756 Y62.74472
G01 X-71.15799 Y62.88750
G01 X-71.29358 Y63.12237
G01 X-71.35614 Y63.33256
G01 X-71.37499 Y63.52501
G01 X-71.35614 Y63.71747
G01 X-71.29358 Y63.92765
G01 X-71.17445 Y64.14218
G01 X-71.02756 Y64.30532
G01 X-70.84999 Y64.43433
G01 X-70.62419 Y64.53039
G01 X-70.40862 Y64.57063
G01 X-70.24136 Y64.57063
G01 X-70.08428 Y64.54284
G01 X-62.02855 Y72.59858
G01 X-61.93172 Y72.67335
G01 X-61.79634 Y72.72944
G01 X-61.67498 Y72.74501
G01 X-29.86110 Y72.74501
G01 X-29.77492 Y72.89157
G01 X-29.63953 Y73.04397
G01 X-29.43499 Y73.19764
G01 X-29.19963 Y73.29794
G01 X-28.99996 Y73.33899
G01 X-28.79613 Y73.34036
G01 X-28.57035 Y73.29794
G01 X-28.35831 Y73.20952
G01 X-28.13044 Y73.04397
G01 X-27.98081 Y72.86962
G01 X-27.88008 Y72.69243
G01 X-27.80903 Y72.47371
G01 X-27.78635 Y72.21887
G04 P0 ( dwell for no time -- G64 should not smooth over this point )
G00 Z2.00000 ( retract )

G00 X-27.78635 Y74.75887 ( rapid move to begin. )
G01 F20.00000
G01 Z-0.10000
G04 P0 ( dwell for no time -- G64 should not smooth over this point )
G01 F40.00000
G01 X-27.78635 Y74.75887
G01 X-27.80903 Y74.55631
G01 X-27.88008 Y74.33761
G01 X-27.99506 Y74.13845
G01 X-28.13044 Y73.98605
G01 X-28.35831 Y73.82049
G01 X-28.57035 Y73.73208
G01 X-28.79613 Y73.68966
G01 X-28.99996 Y73.69103
G01 X-29.19963 Y73.73208
G01 X-29.43499 Y73.83238
G01 X-29.63953 Y73.98605
G01 X-29.77492 Y74.13845
G01 X-29.86110 Y74.28501
G01 X-61.29987 Y74.28501
G01 X-77.80756 Y57.77735
G01 X-77.77500 Y57.52502
G01 X-77.80472 Y57.28144
G01 X-77.85638 Y57.12236
G01 X-77.96126 Y56.92977
G01 X-78.12239 Y56.74471
G01 X-78.29999 Y56.61568
G01 X-78.52580 Y56.51964
G01 X-78.68940 Y56.48487
G01 X-78.90860 Y56.47941
G01 X-79.12417 Y56.51964
G01 X-79.34998 Y56.61568
G01 X-79.52757 Y56.74471
G01 X-79.67446 Y56.90783
G01 X-79.79359 Y57.12236
G01 X-79.85615 Y57.33254
G01 X-79.87499 Y57.52502
G01 X-79.85615 Y57.71748
G01 X-79.77233 Y57.97539
G01 X-79.67446 Y58.14219
G01 X-79.54609 Y58.28682
G01 X-79.34998 Y58.43434
G01 X-79.12417 Y58.53041
G01 X-78.96059 Y58.56518
G01 X-78.74137 Y58.57064
G01 X-78.48241 Y58.51666
G01 X-61.86055 Y75.13858
G01 X-61.76373 Y75.21335
G01 X-61.67523 Y75.25521
G01 X-61.50698 Y75.28501
G01 X-29.86110 Y75.28501
G01 X-29.77492 Y75.43157
G01 X-29.63953 Y75.58397
G01 X-29.43499 Y75.73764
G01 X-29.19963 Y75.83794
G01 X-28.99996 Y75.87899
G01 X-28.79613 Y75.88036
G01 X-28.57035 Y75.83794
G01 X-28.35831 Y75.74952
G01 X-28.13044 Y75.58397
G01 X-27.98081 Y75.40962
G01 X-27.88008 Y75.23243
G01 X-27.80903 Y75.01371
G01 X-27.78635 Y74.75887
G04 P0 ( dwell for no time -- G64 should not smooth over this point )
G00 Z2.00000 ( retract )

G00 X-25.24635 Y72.21887 ( rapid move to begin. )
G01 F20.00000
G01 Z-0.10000
G04 P0 ( dwell for no time -- G64 should not smooth over this point )
G01 F40.00000
G01 X-25.24635 Y72.21887
G01 X-25.26903 Y72.47371
G01 X-25.34008 Y72.69243
G01 X-25.44081 Y72.86962
G01 X-25.60894 Y73.06248
G01 X-25.79499 Y73.19764
G01 X-25.98064 Y73.28179
G01 X-26.23002 Y73.33899
G01 X-26.43383 Y73.34036
G01 X-26.65963 Y73.29794
G01 X-26.89499 Y73.19764
G01 X-27.06070 Y73.07894
G01 X-27.23492 Y72.89157
G01 X-27.34988 Y72.69243
G01 X-27.42504 Y72.44788
G01 X-27.44363 Y72.21887
G01 X-27.42095 Y72.01631
G01 X-27.38767 Y71.90945
G01 X-28.25208 Y71.04501
G01 X-54.03499 Y71.04501
G01 X-54.20324 Y71.01522
G01 X-54.29173 Y70.97336
G01 X-54.38853 Y70.89855
G01 X-63.38610 Y61.89250
G01 X-63.45519 Y61.76327
G01 X-63.48498 Y61.59502
G01 X-63.48498 Y58.33795
G01 X-63.68872 Y58.12025
G01 X-63.79359 Y57.92766
G01 X-63.84526 Y57.76861
G01 X-63.87363 Y57.49889
G01 X-63.85613 Y57.33254
G01 X-63.79359 Y57.12236
G01 X-63.67447 Y56.90783
G01 X-63.50723 Y56.72825
G01 X-63.34998 Y56.61568
G01 X-63.17388 Y56.53577
G01 X-62.96060 Y56.48487
G01 X-62.68938 Y56.48487
G01 X-62.47610 Y56.53577
G01 X-62.30000 Y56.61568
G01 X-62.14275 Y56.72825
G01 X-61.97551 Y56.90783
G01 X-61.85639 Y57.12236
G01 X-61.79383 Y57.33254
G01 X-61.77498 Y57.52502
G01 X-61.80470 Y57.76861
G01 X-61.85639 Y57.92766
G01 X-61.96126 Y58.12025
G01 X-62.10388 Y58.28682
G01 X-62.30000 Y58.43434
G01 X-62.48499 Y58.51765
G01 X-62.48499 Y61.38791
G01 X-53.82788 Y70.04501
G01 X-28.02049 Y70.04621
G01 X-27.83146 Y70.09355
G01 X-27.70962 Y70.17498
G01 X-26.68318 Y71.19972
G01 X-26.45996 Y71.15103
G01 X-26.20416 Y71.15512
G01 X-26.03035 Y71.19208
G01 X-25.81831 Y71.28049
G01 X-25.62928 Y71.41108
G01 X-25.45506 Y71.59845
G01 X-25.34008 Y71.79761
G01 X-25.26903 Y72.01631
G01 X-25.24635 Y72.21887
G04 P0 ( dwell for no time -- G64 should not smooth over this point )
G00 Z2.00000 ( retract )

G00 X-22.70635 Y72.21887 ( rapid move to begin. )
G01 F20.00000
G01 Z-0.10000
G04 P0 ( dwell for no time -- G64 should not smooth over this point )
G01 F40.00000
G01 X-22.70635 Y72.21887
G01 X-22.72903 Y72.47371
G01 X-22.81196 Y72.71575
G01 X-22.90081 Y72.86962
G01 X-23.05044 Y73.04397
G01 X-23.25499 Y73.19764
G01 X-23.49035 Y73.29794
G01 X-23.71613 Y73.34036
G01 X-23.91996 Y73.33899
G01 X-24.11963 Y73.29794
G01 X-24.35499 Y73.19764
G01 X-24.52070 Y73.07894
G01 X-24.67843 Y72.91191
G01 X-24.81927 Y72.66799
G01 X-24.88095 Y72.47371
G01 X-24.90363 Y72.27115
G01 X-24.88504 Y72.04216
G01 X-24.84767 Y71.90945
G01 X-26.81211 Y69.94501
G01 X-48.87501 Y69.94501
G01 X-48.99634 Y69.92944
G01 X-49.13175 Y69.87336
G01 X-49.22855 Y69.79856
G01 X-54.50286 Y64.52425
G01 X-54.74136 Y64.57063
G01 X-54.96059 Y64.56517
G01 X-55.12417 Y64.53039
G01 X-55.35000 Y64.43433
G01 X-55.52757 Y64.30532
G01 X-55.68871 Y64.12023
G01 X-55.77232 Y63.97540
G01 X-55.84527 Y63.76860
G01 X-55.87499 Y63.52501
G01 X-55.84527 Y63.28142
G01 X-55.77232 Y63.07462
G01 X-55.68871 Y62.92979
G01 X-55.54609 Y62.76321
G01 X-55.35000 Y62.61569
G01 X-55.14947 Y62.52641
G01 X-54.90860 Y62.47939
G01 X-54.68940 Y62.48486
G01 X-54.47609 Y62.53578
G01 X-54.29999 Y62.61569
G01 X-54.14274 Y62.72824
G01 X-53.96128 Y62.92979
G01 X-53.87764 Y63.07462
G01 X-53.80471 Y63.28142
G01 X-53.77500 Y63.52501
G01 X-53.81442 Y63.79847
G01 X-48.66787 Y68.94499
G01 X-26.53172 Y68.95101
G01 X-26.39148 Y68.99358
G01 X-26.25145 Y69.09145
G01 X-24.14422 Y71.19866
G01 X-23.91996 Y71.15103
G01 X-23.66416 Y71.15512
G01 X-23.49035 Y71.19208
G01 X-23.27831 Y71.28049
G01 X-23.08928 Y71.41108
G01 X-22.91506 Y71.59845
G01 X-22.80008 Y71.79761
G01 X-22.72903 Y72.01631
G01 X-22.70635 Y72.21887
G04 P0 ( dwell for no time -- G64 should not smooth over this point )
G00 Z2.00000 ( retract )

G00 X-20.16635 Y74.75887 ( rapid move to begin. )
G01 F20.00000
G01 Z-0.10000
G04 P0 ( dwell for no time -- G64 should not smooth over this point )
G01 F40.00000
G01 X-20.16635 Y74.75887
G01 X-20.18903 Y75.01371
G01 X-20.26008 Y75.23243
G01 X-20.36081 Y75.40962
G01 X-20.52894 Y75.60248
G01 X-20.71499 Y75.73764
G01 X-20.95035 Y75.83794
G01 X-21.15002 Y75.87899
G01 X-21.35383 Y75.88036
G01 X-21.60422 Y75.83136
G01 X-24.81145 Y79.03859
G01 X-24.95148 Y79.13649
G01 X-25.14051 Y79.18383
G01 X-89.22824 Y79.17903
G01 X-89.36850 Y79.13649
G01 X-89.50853 Y79.03859
G01 X-103.51863 Y65.02846
G01 X-103.74137 Y65.07063
G01 X-103.96059 Y65.06517
G01 X-104.12417 Y65.03039
G01 X-104.34998 Y64.93433
G01 X-104.52757 Y64.80532
G01 X-104.67446 Y64.64218
G01 X-104.79359 Y64.42765
G01 X-104.85615 Y64.21747
G01 X-104.87499 Y64.02501
G01 X-104.85615 Y63.83255
G01 X-104.77233 Y63.57462
G01 X-104.65798 Y63.38750
G01 X-104.52757 Y63.24472
G01 X-104.37192 Y63.12994
G01 X-104.14944 Y63.02641
G01 X-103.90860 Y62.97939
G01 X-103.68940 Y62.98485
G01 X-103.52580 Y63.01963
G01 X-103.29999 Y63.11569
G01 X-103.12239 Y63.24472
G01 X-102.96126 Y63.42979
G01 X-102.85638 Y63.62237
G01 X-102.80472 Y63.78142
G01 X-102.77500 Y64.02501
G01 X-102.79385 Y64.21747
G01 X-102.81932 Y64.31358
G01 X-88.94785 Y78.18505
G01 X-25.37211 Y78.18503
G01 X-22.30767 Y75.12059
G01 X-22.34504 Y74.98788
G01 X-22.36363 Y74.75887
G01 X-22.34095 Y74.55631
G01 X-22.27927 Y74.36202
G01 X-22.13843 Y74.11811
G01 X-21.98070 Y73.95108
G01 X-21.83693 Y73.84663
G01 X-21.57963 Y73.73208
G01 X-21.35383 Y73.68966
G01 X-21.15002 Y73.69103
G01 X-20.95035 Y73.73208
G01 X-20.71499 Y73.83238
G01 X-20.51044 Y73.98605
G01 X-20.36081 Y74.16040
G01 X-20.25070 Y74.36202
G01 X-20.18903 Y74.55631
G01 X-20.16635 Y74.75887
G04 P0 ( dwell for no time -- G64 should not smooth over this point )
G00 Z2.00000 ( retract )

G00 X-5.28655 Y65.40786 ( rapid move to begin. )
G01 F20.00000
G01 Z-0.10000
G04 P0 ( dwell for no time -- G64 should not smooth over this point )
G01 F40.00000
G01 X-5.28655 Y65.40786
G01 X-5.28744 Y74.58514
G01 X-5.29818 Y74.65768
G01 X-5.33679 Y74.74782
G01 X-5.39541 Y74.82689
G01 X-6.34309 Y75.77459
G01 X-6.46541 Y75.85630
G01 X-6.56089 Y75.88021
G01 X-7.27549 Y75.88501
G01 X-7.40526 Y75.86187
G01 X-7.49038 Y75.81765
G01 X-7.57682 Y75.73441
G01 X-7.62421 Y75.65102
G01 X-7.65050 Y75.53502
G01 X-7.76635 Y75.53502
G01 X-7.82894 Y75.60248
G01 X-7.99304 Y75.72339
G01 X-8.20064 Y75.82179
G01 X-8.47613 Y75.88036
G01 X-8.67996 Y75.87899
G01 X-8.92934 Y75.82179
G01 X-9.13693 Y75.72339
G01 X-9.28070 Y75.61894
G01 X-9.36363 Y75.53502
G01 X-10.30635 Y75.53502
G01 X-10.38928 Y75.61894
G01 X-10.57831 Y75.74952
G01 X-10.79035 Y75.83794
G01 X-10.99002 Y75.87899
G01 X-11.24582 Y75.87490
G01 X-11.46934 Y75.82179
G01 X-11.65499 Y75.73764
G01 X-11.85953 Y75.58397
G01 X-12.00917 Y75.40962
G01 X-12.11927 Y75.20799
G01 X-12.18095 Y75.01371
G01 X-12.20363 Y74.81115
G01 X-12.18095 Y74.55631
G01 X-12.09802 Y74.31430
G01 X-11.99492 Y74.13845
G01 X-11.85953 Y73.98605
G01 X-11.65499 Y73.83238
G01 X-11.46934 Y73.74823
G01 X-11.24582 Y73.69512
G01 X-10.99002 Y73.69103
G01 X-10.79035 Y73.73208
G01 X-10.57831 Y73.82049
G01 X-10.38928 Y73.95108
G01 X-10.30635 Y74.03502
G01 X-9.36363 Y74.03502
G01 X-9.28070 Y73.95108
G01 X-9.13693 Y73.84663
G01 X-8.92934 Y73.74823
G01 X-8.67996 Y73.69103
G01 X-8.47613 Y73.68966
G01 X-8.25035 Y73.73208
G01 X-8.03831 Y73.82049
G01 X-7.84928 Y73.95108
G01 X-7.75606 Y74.03502
G01 X-7.81499 Y73.95219
G01 X-7.84783 Y73.85682
G01 X-7.85162 Y73.73157
G01 X-7.82457 Y73.63439
G01 X-7.78794 Y73.56830
G01 X-7.70036 Y73.47869
G01 X-7.51961 Y73.38745
G01 X-7.46630 Y73.34371
G01 X-7.39007 Y73.22961
G01 X-7.37006 Y73.16363
G01 X-7.36147 Y71.41349
G01 X-7.39007 Y71.26040
G01 X-7.46630 Y71.14633
G01 X-7.58040 Y71.07011
G01 X-7.64639 Y71.05009
G01 X-8.13424 Y71.03904
G01 X-8.27422 Y71.00107
G01 X-8.35639 Y70.94755
G01 X-8.40567 Y70.89320
G01 X-8.45629 Y70.80877
G01 X-8.48019 Y70.71326
G01 X-8.48255 Y64.65595
G01 X-8.46350 Y64.56039
G01 X-8.42802 Y64.48175
G01 X-8.33739 Y64.38363
G01 X-8.09218 Y64.21858
G01 X-7.93173 Y64.05813
G01 X-7.80585 Y63.86971
G01 X-7.68827 Y63.57276
G01 X-7.60816 Y63.46418
G01 X-7.50595 Y63.39590
G01 X-7.44781 Y63.37543
G01 X-7.37524 Y63.36466
G01 X-7.25312 Y63.37543
G01 X-7.16297 Y63.41401
G01 X-7.08388 Y63.47264
G01 X-5.39541 Y65.16113
G01 X-5.32033 Y65.26842
G01 X-5.28655 Y65.40786
G04 P0 ( dwell for no time -- G64 should not smooth over this point )
G00 Z2.00000 ( retract )

G00 X-4.18498 Y65.02300 ( rapid move to begin. )
G01 F20.00000
G01 Z-0.10000
G04 P0 ( dwell for no time -- G64 should not smooth over this point )
G01 F40.00000
G01 X-4.18498 Y65.02300
G01 X-4.18498 Y74.96502
G01 X-4.20055 Y75.08635
G01 X-4.25663 Y75.22176
G01 X-4.33143 Y75.31856
G01 X-5.85144 Y76.83857
G01 X-5.94824 Y76.91335
G01 X-6.08365 Y76.96943
G01 X-6.20499 Y76.98500
G01 X-11.96949 Y76.98381
G01 X-12.15852 Y76.93646
G01 X-12.28036 Y76.85503
G01 X-13.30680 Y75.83029
G01 X-13.55613 Y75.88036
G01 X-13.75996 Y75.87899
G01 X-13.95963 Y75.83794
G01 X-14.21693 Y75.72339
G01 X-14.39953 Y75.58397
G01 X-14.53492 Y75.43157
G01 X-14.64988 Y75.23243
G01 X-14.72095 Y75.01371
G01 X-14.74363 Y74.81115
G01 X-14.72504 Y74.58216
G01 X-14.63802 Y74.31430
G01 X-14.51843 Y74.11811
G01 X-14.36070 Y73.95108
G01 X-14.19499 Y73.83238
G01 X-14.00934 Y73.74823
G01 X-13.73383 Y73.68966
G01 X-13.53002 Y73.69103
G01 X-13.33035 Y73.73208
G01 X-13.09499 Y73.83238
G01 X-12.92928 Y73.95108
G01 X-12.74081 Y74.16040
G01 X-12.64008 Y74.33761
G01 X-12.57579 Y74.53103
G01 X-12.54635 Y74.81115
G01 X-12.56903 Y75.01371
G01 X-12.60231 Y75.12059
G01 X-11.73789 Y75.98501
G01 X-6.41210 Y75.98501
G01 X-5.18500 Y74.75791
G01 X-5.18500 Y65.23011
G01 X-13.15008 Y57.26503
G01 X-15.51625 Y57.25901
G01 X-15.61122 Y57.23523
G01 X-15.74048 Y57.16615
G01 X-16.24009 Y56.67501
G01 X-17.40989 Y56.67501
G01 X-17.90951 Y57.16615
G01 X-18.03877 Y57.23523
G01 X-18.20699 Y57.26503
G01 X-30.64299 Y57.26503
G01 X-30.81121 Y57.23523
G01 X-30.94047 Y57.16615
G01 X-31.74009 Y56.37501
G01 X-32.87788 Y56.37501
G01 X-33.63958 Y57.13506
G01 X-33.80673 Y57.23523
G01 X-33.95045 Y57.26381
G01 X-46.14298 Y57.26503
G01 X-46.31121 Y57.23523
G01 X-46.44047 Y57.16615
G01 X-47.24008 Y56.37501
G01 X-48.37788 Y56.37501
G01 X-49.13962 Y57.13506
G01 X-49.30675 Y57.23523
G01 X-49.45049 Y57.26381
G01 X-61.14298 Y57.26503
G01 X-61.31123 Y57.23523
G01 X-61.44046 Y57.16615
G01 X-62.24008 Y56.37501
G01 X-63.37787 Y56.37501
G01 X-64.13962 Y57.13506
G01 X-64.30675 Y57.23523
G01 X-64.45049 Y57.26381
G01 X-77.14297 Y57.26503
G01 X-77.31122 Y57.23523
G01 X-77.44045 Y57.16615
G01 X-78.24010 Y56.37501
G01 X-79.40987 Y56.37501
G01 X-81.01345 Y57.97857
G01 X-81.15348 Y58.07648
G01 X-81.29371 Y58.11903
G01 X-92.78297 Y58.12502
G01 X-92.95122 Y58.09523
G01 X-93.11835 Y57.99505
G01 X-94.74009 Y56.37501
G01 X-95.90989 Y56.37501
G01 X-97.92345 Y58.38857
G01 X-98.06348 Y58.48646
G01 X-98.20374 Y58.52901
G01 X-108.87298 Y58.53503
G01 X-109.04123 Y58.50523
G01 X-109.12972 Y58.46338
G01 X-109.22652 Y58.38857
G01 X-111.24008 Y56.37501
G01 X-112.40988 Y56.37501
G01 X-113.86345 Y57.82858
G01 X-114.00348 Y57.92647
G01 X-114.14371 Y57.96901
G01 X-126.37744 Y57.97501
G01 X-126.49200 Y58.16251
G01 X-126.62240 Y58.30531
G01 X-126.76700 Y58.41207
G01 X-126.78255 Y58.64636
G01 X-126.81554 Y58.73853
G01 X-126.89697 Y58.86038
G01 X-127.05346 Y58.97646
G01 X-127.14564 Y59.00945
G01 X-127.26700 Y59.02502
G01 X-127.42895 Y59.01410
G01 X-127.55168 Y58.96990
G01 X-127.63921 Y58.91306
G01 X-127.74376 Y58.79695
G01 X-127.80728 Y58.65426
G01 X-127.82362 Y58.55113
G01 X-127.81846 Y58.44986
G01 X-128.04607 Y58.28682
G01 X-128.17447 Y58.14219
G01 X-128.27233 Y57.97539
G01 X-128.34528 Y57.76861
G01 X-128.37363 Y57.49889
G01 X-128.34528 Y57.28144
G01 X-128.29359 Y57.12236
G01 X-128.17447 Y56.90783
G01 X-128.04607 Y56.76323
G01 X-127.84998 Y56.61568
G01 X-127.67388 Y56.53577
G01 X-127.40860 Y56.47941
G01 X-127.18938 Y56.48487
G01 X-127.02580 Y56.51964
G01 X-126.80000 Y56.61568
G01 X-126.62240 Y56.74471
G01 X-126.49200 Y56.88751
G01 X-126.43515 Y56.97501
G01 X-114.42410 Y56.97501
G01 X-112.95237 Y55.50499
G01 X-112.78524 Y55.40481
G01 X-112.61699 Y55.37501
G01 X-111.03300 Y55.37501
G01 X-110.91163 Y55.39058
G01 X-110.77625 Y55.44667
G01 X-110.67943 Y55.52145
G01 X-108.66587 Y57.53503
G01 X-98.48413 Y57.53503
G01 X-96.47054 Y55.52145
G01 X-96.33051 Y55.42355
G01 X-96.23833 Y55.39058
G01 X-96.11700 Y55.37501
G01 X-94.53298 Y55.37501
G01 X-94.41164 Y55.39058
G01 X-94.31947 Y55.42355
G01 X-94.17944 Y55.52147
G01 X-92.57588 Y57.12502
G01 X-81.57410 Y57.12502
G01 X-79.95236 Y55.50499
G01 X-79.78523 Y55.40481
G01 X-79.61698 Y55.37501
G01 X-78.03299 Y55.37501
G01 X-77.86474 Y55.40481
G01 X-77.77624 Y55.44667
G01 X-77.67944 Y55.52145
G01 X-76.93586 Y56.26503
G01 X-64.68209 Y56.26503
G01 X-63.88247 Y55.47390
G01 X-63.75321 Y55.40481
G01 X-63.58498 Y55.37501
G01 X-62.03299 Y55.37501
G01 X-61.86474 Y55.40481
G01 X-61.77625 Y55.44667
G01 X-61.67942 Y55.52145
G01 X-60.93586 Y56.26503
G01 X-49.68209 Y56.26503
G01 X-48.88247 Y55.47390
G01 X-48.75321 Y55.40481
G01 X-48.58499 Y55.37501
G01 X-47.03300 Y55.37501
G01 X-46.86475 Y55.40481
G01 X-46.77625 Y55.44667
G01 X-46.67943 Y55.52145
G01 X-45.93584 Y56.26503
G01 X-34.18210 Y56.26503
G01 X-33.38248 Y55.47390
G01 X-33.25319 Y55.40481
G01 X-33.08497 Y55.37501
G01 X-31.53298 Y55.37501
G01 X-31.36475 Y55.40481
G01 X-31.27623 Y55.44667
G01 X-31.17943 Y55.52147
G01 X-30.43588 Y56.26503
G01 X-18.41413 Y56.26503
G01 X-17.95236 Y55.80499
G01 X-17.83052 Y55.72355
G01 X-17.73834 Y55.69058
G01 X-17.61698 Y55.67501
G01 X-16.00847 Y55.67621
G01 X-15.86473 Y55.70481
G01 X-15.73550 Y55.77390
G01 X-15.23585 Y56.26503
G01 X-12.94297 Y56.26503
G01 X-12.77472 Y56.29482
G01 X-12.64549 Y56.36391
G01 X-4.33143 Y64.66946
G01 X-4.23354 Y64.80949
G01 X-4.20055 Y64.90167
G01 X-4.18498 Y65.02300
G04 P0 ( dwell for no time -- G64 should not smooth over this point )
G00 Z2.00000 ( retract )

G00 X-3.08498 Y64.56738 ( rapid move to begin. )
G01 F20.00000
G01 Z-0.10000
G04 P0 ( dwell for no time -- G64 should not smooth over this point )
G01 F40.00000
G01 X-3.08498 Y64.56738
G01 X-3.08498 Y75.42064
G01 X-3.11477 Y75.58889
G01 X-3.18386 Y75.71815
G01 X-5.39579 Y77.93857
G01 X-5.49262 Y78.01337
G01 X-5.62800 Y78.06946
G01 X-5.74934 Y78.08503
G01 X-13.40949 Y78.08381
G01 X-13.59849 Y78.03646
G01 X-13.73852 Y77.93857
G01 X-15.84680 Y75.83029
G01 X-16.09613 Y75.88036
G01 X-16.29996 Y75.87899
G01 X-16.49963 Y75.83794
G01 X-16.75693 Y75.72339
G01 X-16.90070 Y75.61894
G01 X-17.05843 Y75.45191
G01 X-17.19927 Y75.20799
G01 X-17.26095 Y75.01371
G01 X-17.28363 Y74.75887
G01 X-17.26095 Y74.55631
G01 X-17.18988 Y74.33761
G01 X-17.07492 Y74.13845
G01 X-16.90070 Y73.95108
G01 X-16.73499 Y73.83238
G01 X-16.54934 Y73.74823
G01 X-16.27383 Y73.68966
G01 X-16.07002 Y73.69103
G01 X-15.87035 Y73.73208
G01 X-15.63499 Y73.83238
G01 X-15.46928 Y73.95108
G01 X-15.28081 Y74.16040
G01 X-15.18008 Y74.33761
G01 X-15.11579 Y74.53103
G01 X-15.08635 Y74.81115
G01 X-15.10903 Y75.01371
G01 X-15.14231 Y75.12059
G01 X-13.17787 Y77.08503
G01 X-5.95647 Y77.08503
G01 X-4.08498 Y75.21356
G01 X-4.08498 Y64.77446
G01 X-13.58445 Y55.27501
G01 X-33.36551 Y55.27499
G01 X-34.16515 Y56.06612
G01 X-34.29436 Y56.13521
G01 X-34.46264 Y56.16501
G01 X-45.71184 Y56.16381
G01 X-45.90084 Y56.11647
G01 X-46.02271 Y56.03503
G01 X-46.78443 Y55.27501
G01 X-48.86553 Y55.27501
G01 X-49.66515 Y56.06612
G01 X-49.79441 Y56.13521
G01 X-49.96263 Y56.16501
G01 X-60.71184 Y56.16381
G01 X-60.90086 Y56.11647
G01 X-61.02271 Y56.03503
G01 X-61.78445 Y55.27501
G01 X-63.86553 Y55.27501
G01 X-64.62727 Y56.03503
G01 X-64.74912 Y56.11647
G01 X-64.93814 Y56.16381
G01 X-76.68734 Y56.16501
G01 X-76.85557 Y56.13521
G01 X-76.98483 Y56.06612
G01 X-77.78445 Y55.27501
G01 X-79.86555 Y55.27501
G01 X-81.46910 Y56.87857
G01 X-81.60913 Y56.97646
G01 X-81.74936 Y57.01900
G01 X-92.32734 Y57.02502
G01 X-92.49557 Y56.99523
G01 X-92.66270 Y56.89505
G01 X-94.28444 Y55.27501
G01 X-96.36551 Y55.27499
G01 X-98.37910 Y57.28857
G01 X-98.51913 Y57.38647
G01 X-98.61130 Y57.41944
G01 X-98.73264 Y57.43501
G01 X-108.49061 Y57.42901
G01 X-108.63087 Y57.38647
G01 X-108.77090 Y57.28857
G01 X-110.78446 Y55.27499
G01 X-112.86553 Y55.27501
G01 X-113.83726 Y56.24504
G01 X-113.95913 Y56.32647
G01 X-114.09936 Y56.36899
G01 X-127.90987 Y56.37501
G01 X-128.47500 Y56.94011
G01 X-128.47500 Y58.22357
G01 X-123.39353 Y63.30502
G01 X-120.08370 Y63.30502
G01 X-120.00725 Y63.22824
G01 X-119.82668 Y63.10380
G01 X-119.64946 Y63.02641
G01 X-119.40862 Y62.97939
G01 X-119.18939 Y62.98485
G01 X-119.00052 Y63.02641
G01 X-118.79999 Y63.11569
G01 X-118.62239 Y63.24472
G01 X-118.46128 Y63.42979
G01 X-118.37763 Y63.57462
G01 X-118.30471 Y63.78142
G01 X-118.27636 Y64.05115
G01 X-118.29384 Y64.21747
G01 X-118.35637 Y64.42765
G01 X-118.47553 Y64.64218
G01 X-118.64273 Y64.82178
G01 X-118.79999 Y64.93433
G01 X-118.97608 Y65.01424
G01 X-119.24136 Y65.07063
G01 X-119.46059 Y65.06517
G01 X-119.62419 Y65.03039
G01 X-119.87194 Y64.92008
G01 X-120.02757 Y64.80532
G01 X-120.17446 Y64.64218
G01 X-120.27232 Y64.47540
G01 X-120.33343 Y64.30502
G01 X-123.60064 Y64.30502
G01 X-123.76889 Y64.27523
G01 X-123.89812 Y64.20614
G01 X-129.37611 Y58.72814
G01 X-129.44520 Y58.59891
G01 X-129.47500 Y58.43066
G01 X-129.47378 Y56.70851
G01 X-129.42643 Y56.51949
G01 X-129.32854 Y56.37946
G01 X-128.45237 Y55.50499
G01 X-128.33050 Y55.42355
G01 X-128.19026 Y55.38101
G01 X-114.37975 Y55.37501
G01 X-113.40800 Y54.40496
G01 X-113.24087 Y54.30479
G01 X-113.07262 Y54.27499
G01 X-110.57735 Y54.27499
G01 X-110.45601 Y54.29056
G01 X-110.36383 Y54.32356
G01 X-110.22380 Y54.42145
G01 X-108.21022 Y56.43501
G01 X-98.93975 Y56.43501
G01 X-96.92619 Y54.42145
G01 X-96.82937 Y54.34664
G01 X-96.74087 Y54.30479
G01 X-96.57262 Y54.27499
G01 X-94.07735 Y54.27499
G01 X-93.90910 Y54.30479
G01 X-93.82061 Y54.34664
G01 X-93.72379 Y54.42145
G01 X-92.12023 Y56.02500
G01 X-82.02973 Y56.02500
G01 X-80.40801 Y54.40496
G01 X-80.24088 Y54.30479
G01 X-80.07263 Y54.27499
G01 X-77.57734 Y54.27499
G01 X-77.45600 Y54.29056
G01 X-77.32062 Y54.34664
G01 X-77.24198 Y54.40496
G01 X-76.48023 Y55.16501
G01 X-65.16974 Y55.16501
G01 X-64.37012 Y54.37387
G01 X-64.24086 Y54.30479
G01 X-64.07264 Y54.27499
G01 X-61.57734 Y54.27499
G01 X-61.45601 Y54.29056
G01 X-61.32060 Y54.34664
G01 X-61.24196 Y54.40496
G01 X-60.48021 Y55.16501
G01 X-50.16974 Y55.16501
G01 X-49.37013 Y54.37387
G01 X-49.24087 Y54.30479
G01 X-49.07262 Y54.27499
G01 X-46.57735 Y54.27499
G01 X-46.45601 Y54.29056
G01 X-46.32060 Y54.34664
G01 X-46.24196 Y54.40496
G01 X-45.48022 Y55.16501
G01 X-34.66975 Y55.16501
G01 X-33.87011 Y54.37387
G01 X-33.74087 Y54.30479
G01 X-33.57260 Y54.27499
G01 X-13.35285 Y54.27621
G01 X-13.16382 Y54.32356
G01 X-13.02379 Y54.42145
G01 X-3.23143 Y64.21381
G01 X-3.13352 Y64.35386
G01 X-3.10055 Y64.44604
G01 X-3.08498 Y64.56738
G04 P0 ( dwell for no time -- G64 should not smooth over this point )
G00 Z2.00000 ( retract )

G00 X-12.09499 Y46.85113 ( rapid move to begin. )
G01 F20.00000
G01 Z-0.10000
G04 P0 ( dwell for no time -- G64 should not smooth over this point )
G01 F40.00000
G01 X-12.09499 Y46.85113
G01 X-12.22811 Y46.74765
G01 X-12.38420 Y46.57501
G01 X-12.24950 Y46.73556
G01 X-12.09499 Y46.85113
G04 P0 ( dwell for no time -- G64 should not smooth over this point )
G00 Z2.00000 ( retract )

G00 X-12.15499 Y44.83861 ( rapid move to begin. )
G01 F20.00000
G01 Z-0.10000
G04 P0 ( dwell for no time -- G64 should not smooth over this point )
G01 F40.00000
G01 X-12.15499 Y44.83861
G01 X-12.24950 Y44.91448
G01 X-12.38420 Y45.07501
G01 X-12.15499 Y44.83861
G04 P0 ( dwell for no time -- G64 should not smooth over this point )
G00 Z2.00000 ( retract )

G00 X-5.12249 Y44.82502 ( rapid move to begin. )
G01 F20.00000
G01 Z-0.10000
G04 P0 ( dwell for no time -- G64 should not smooth over this point )
G01 F40.00000
G01 X-5.12249 Y44.82502
G01 X-5.14151 Y44.72934
G01 X-5.19572 Y44.64824
G01 X-5.27682 Y44.59404
G01 X-5.37248 Y44.57501
G01 X-7.27748 Y44.57501
G01 X-7.37316 Y44.59404
G01 X-7.48535 Y44.68611
G01 X-7.52749 Y44.82502
G01 X-7.52749 Y46.09418
G01 X-7.56249 Y46.31250
G01 X-7.56249 Y48.30185
G01 X-8.84036 Y49.57973
G01 X-8.93411 Y49.58069
G01 X-9.14946 Y49.62641
G01 X-9.37193 Y49.72994
G01 X-9.52759 Y49.84470
G01 X-9.65799 Y49.98750
G01 X-9.77234 Y50.17462
G01 X-9.85613 Y50.43256
G01 X-9.87361 Y50.65115
G01 X-9.84526 Y50.86860
G01 X-9.77234 Y51.07540
G01 X-9.65799 Y51.26253
G01 X-9.52759 Y51.40532
G01 X-9.37193 Y51.52008
G01 X-9.12418 Y51.63039
G01 X-8.96058 Y51.66517
G01 X-8.74135 Y51.67063
G01 X-8.47610 Y51.61424
G01 X-8.32330 Y51.54622
G01 X-8.14273 Y51.42178
G01 X-7.99198 Y51.26253
G01 X-7.87765 Y51.07540
G01 X-7.79792 Y50.84332
G01 X-7.77636 Y50.63705
G01 X-6.28215 Y49.14285
G01 X-6.17626 Y49.00815
G01 X-6.08284 Y48.78262
G01 X-6.06369 Y48.63700
G01 X-6.06247 Y47.07501
G01 X-5.32371 Y47.07021
G01 X-5.19572 Y47.00178
G01 X-5.12729 Y46.87379
G01 X-5.12249 Y44.82502
G04 P0 ( dwell for no time -- G64 should not smooth over this point )
G00 Z2.00000 ( retract )

G00 X-13.12892 Y40.32102 ( rapid move to begin. )
G01 F20.00000
G01 Z-0.10000
G04 P0 ( dwell for no time -- G64 should not smooth over this point )
G01 F40.00000
G01 X-13.12892 Y40.32102
G01 X-13.27216 Y40.07070
G01 X-13.42186 Y39.90238
G01 X-13.62179 Y39.75036
G01 X-13.74099 Y39.68513
G01 X-13.58506 Y39.76631
G01 X-13.40050 Y39.91444
G01 X-13.24830 Y40.09585
G01 X-13.12892 Y40.32102
G04 P0 ( dwell for no time -- G64 should not smooth over this point )
G00 Z2.00000 ( retract )

G00 X-15.77637 Y45.09889 ( rapid move to begin. )
G01 F20.00000
G01 Z-0.10000
G04 P0 ( dwell for no time -- G64 should not smooth over this point )
G01 F40.00000
G01 X-15.77637 Y45.09889
G01 X-15.80471 Y45.36861
G01 X-15.85638 Y45.52766
G01 X-15.96128 Y45.72025
G01 X-16.14274 Y45.92179
G01 X-16.32331 Y46.04623
G01 X-16.50052 Y46.12362
G01 X-16.74136 Y46.17064
G01 X-16.96059 Y46.16518
G01 X-17.14947 Y46.12362
G01 X-17.37194 Y46.02009
G01 X-17.52757 Y45.90531
G01 X-17.65800 Y45.76251
G01 X-17.77232 Y45.57539
G01 X-17.85205 Y45.34331
G01 X-17.87362 Y45.09889
G01 X-17.85205 Y44.90671
G01 X-17.82820 Y44.82891
G01 X-19.67854 Y42.97857
G01 X-19.75335 Y42.88175
G01 X-19.80943 Y42.74636
G01 X-19.82378 Y42.64951
G01 X-19.82500 Y42.07502
G01 X-20.32627 Y42.07022
G01 X-20.41639 Y42.03288
G01 X-20.50846 Y41.92069
G01 X-20.52749 Y41.82500
G01 X-20.52749 Y39.82501
G01 X-20.50846 Y39.72935
G01 X-20.45426 Y39.64822
G01 X-20.37316 Y39.59405
G01 X-20.27748 Y39.57502
G01 X-18.37248 Y39.57502
G01 X-18.27682 Y39.59405
G01 X-18.19572 Y39.64822
G01 X-18.14151 Y39.72935
G01 X-18.12249 Y39.82501
G01 X-18.12729 Y41.87380
G01 X-18.19572 Y42.00179
G01 X-18.32371 Y42.07022
G01 X-18.82498 Y42.07502
G01 X-18.82498 Y42.41789
G01 X-17.12343 Y44.11946
G01 X-16.90862 Y44.07941
G01 X-16.74136 Y44.07941
G01 X-16.52579 Y44.11964
G01 X-16.32331 Y44.20382
G01 X-16.12239 Y44.34471
G01 X-15.99199 Y44.48751
G01 X-15.87764 Y44.67463
G01 X-15.79793 Y44.90671
G01 X-15.77637 Y45.09889
G04 P0 ( dwell for no time -- G64 should not smooth over this point )
G00 Z2.00000 ( retract )

G00 X-21.12248 Y44.82502 ( rapid move to begin. )
G01 F20.00000
G01 Z-0.10000
G04 P0 ( dwell for no time -- G64 should not smooth over this point )
G01 F40.00000
G01 X-21.12248 Y44.82502
G01 X-21.12728 Y46.87379
G01 X-21.16462 Y46.96391
G01 X-21.27681 Y47.05598
G01 X-21.37249 Y47.07501
G01 X-21.57498 Y47.07501
G01 X-21.58580 Y47.94706
G01 X-21.62380 Y48.08892
G01 X-21.68878 Y48.22065
G01 X-21.79467 Y48.35534
G01 X-23.77635 Y50.33705
G01 X-23.79794 Y50.54332
G01 X-23.87765 Y50.77540
G01 X-23.99200 Y50.96253
G01 X-24.12240 Y51.10533
G01 X-24.27805 Y51.22008
G01 X-24.47610 Y51.31424
G01 X-24.74137 Y51.37063
G01 X-24.96060 Y51.36517
G01 X-25.12418 Y51.33039
G01 X-25.37193 Y51.22008
G01 X-25.52758 Y51.10533
G01 X-25.68872 Y50.92024
G01 X-25.79359 Y50.72765
G01 X-25.85204 Y50.54332
G01 X-25.87363 Y50.35115
G01 X-25.85204 Y50.10670
G01 X-25.79359 Y49.92237
G01 X-25.68872 Y49.72979
G01 X-25.52758 Y49.54470
G01 X-25.32667 Y49.40380
G01 X-25.12418 Y49.31963
G01 X-24.93411 Y49.28069
G01 X-24.84038 Y49.27973
G01 X-23.07498 Y47.51435
G01 X-23.07498 Y47.07501
G01 X-23.27749 Y47.07501
G01 X-23.37315 Y47.05598
G01 X-23.48534 Y46.96391
G01 X-23.52268 Y46.87379
G01 X-23.52748 Y44.82502
G01 X-23.48534 Y44.68611
G01 X-23.37315 Y44.59404
G01 X-23.27749 Y44.57501
G01 X-21.37249 Y44.57501
G01 X-21.27681 Y44.59404
G01 X-21.19571 Y44.64824
G01 X-21.14151 Y44.72934
G01 X-21.12248 Y44.82502
G04 P0 ( dwell for no time -- G64 should not smooth over this point )
G00 Z2.00000 ( retract )

G00 X-28.15498 Y44.83861 ( rapid move to begin. )
G01 F20.00000
G01 Z-0.10000
G04 P0 ( dwell for no time -- G64 should not smooth over this point )
G01 F40.00000
G01 X-28.15498 Y44.83861
G01 X-28.24947 Y44.91446
G01 X-28.38419 Y45.07501
G01 X-28.15498 Y44.83861
G04 P0 ( dwell for no time -- G64 should not smooth over this point )
G00 Z2.00000 ( retract )

G00 X-28.15498 Y46.80754 ( rapid move to begin. )
G01 F20.00000
G01 Z-0.10000
G04 P0 ( dwell for no time -- G64 should not smooth over this point )
G01 F40.00000
G01 X-28.15498 Y46.80754
G01 X-28.22813 Y46.74765
G01 X-28.38419 Y46.57501
G01 X-28.24949 Y46.73556
G01 X-28.15498 Y46.80754
G04 P0 ( dwell for no time -- G64 should not smooth over this point )
G00 Z2.00000 ( retract )

G00 X-31.27636 Y44.79889 ( rapid move to begin. )
G01 F20.00000
G01 Z-0.10000
G04 P0 ( dwell for no time -- G64 should not smooth over this point )
G01 F40.00000
G01 X-31.27636 Y44.79889
G01 X-31.29793 Y44.60671
G01 X-31.37766 Y44.37463
G01 X-31.49198 Y44.18751
G01 X-31.62241 Y44.04471
G01 X-31.82330 Y43.90382
G01 X-32.02579 Y43.81964
G01 X-32.24136 Y43.77941
G01 X-32.40862 Y43.77941
G01 X-32.62342 Y43.81946
G01 X-34.37991 Y42.06298
G01 X-34.31357 Y42.03288
G01 X-34.24463 Y41.96392
G01 X-34.20249 Y41.82500
G01 X-34.20249 Y39.82501
G01 X-34.22152 Y39.72935
G01 X-34.27572 Y39.64822
G01 X-34.35682 Y39.59405
G01 X-34.45248 Y39.57502
G01 X-36.35748 Y39.57502
G01 X-36.45316 Y39.59405
G01 X-36.53424 Y39.64822
G01 X-36.58847 Y39.72935
G01 X-36.60749 Y39.82501
G01 X-36.60749 Y41.82500
G01 X-36.56535 Y41.96392
G01 X-36.49639 Y42.03288
G01 X-36.40625 Y42.07022
G01 X-35.75695 Y42.07502
G01 X-35.67851 Y42.17857
G01 X-33.32820 Y44.52891
G01 X-33.35614 Y44.63254
G01 X-33.37499 Y44.82502
G01 X-33.34527 Y45.06861
G01 X-33.29355 Y45.22766
G01 X-33.18870 Y45.42025
G01 X-33.02756 Y45.60531
G01 X-32.82668 Y45.74623
G01 X-32.64943 Y45.82362
G01 X-32.46059 Y45.86518
G01 X-32.18939 Y45.86518
G01 X-32.00052 Y45.82362
G01 X-31.82330 Y45.74623
G01 X-31.62241 Y45.60531
G01 X-31.46127 Y45.42025
G01 X-31.35640 Y45.22766
G01 X-31.30471 Y45.06861
G01 X-31.27636 Y44.79889
G04 P0 ( dwell for no time -- G64 should not smooth over this point )
G00 Z2.00000 ( retract )

G00 X-29.20893 Y40.32099 ( rapid move to begin. )
G01 F20.00000
G01 Z-0.10000
G04 P0 ( dwell for no time -- G64 should not smooth over this point )
G01 F40.00000
G01 X-29.20893 Y40.32099
G01 X-29.32831 Y40.09585
G01 X-29.48048 Y39.91447
G01 X-29.66509 Y39.76628
G01 X-29.82099 Y39.68513
G01 X-29.70179 Y39.75036
G01 X-29.50187 Y39.90238
G01 X-29.35213 Y40.07070
G01 X-29.20893 Y40.32099
G04 P0 ( dwell for no time -- G64 should not smooth over this point )
G00 Z2.00000 ( retract )

G00 X-36.62248 Y44.82502 ( rapid move to begin. )
G01 F20.00000
G01 Z-0.10000
G04 P0 ( dwell for no time -- G64 should not smooth over this point )
G01 F40.00000
G01 X-36.62248 Y44.82502
G01 X-36.62730 Y46.87379
G01 X-36.69571 Y47.00178
G01 X-36.82372 Y47.07021
G01 X-37.32499 Y47.07501
G01 X-37.32499 Y48.32502
G01 X-37.34056 Y48.44635
G01 X-37.39664 Y48.58176
G01 X-37.47145 Y48.67856
G01 X-39.32179 Y50.52890
G01 X-39.29385 Y50.63256
G01 X-39.27500 Y50.82501
G01 X-39.30472 Y51.06860
G01 X-39.35638 Y51.22765
G01 X-39.46126 Y51.42023
G01 X-39.62239 Y51.60532
G01 X-39.82331 Y51.74622
G01 X-40.00052 Y51.82361
G01 X-40.18940 Y51.86517
G01 X-40.46059 Y51.86517
G01 X-40.64944 Y51.82361
G01 X-40.84998 Y51.73433
G01 X-41.02757 Y51.60532
G01 X-41.17446 Y51.44218
G01 X-41.29359 Y51.22765
G01 X-41.35615 Y51.01747
G01 X-41.37499 Y50.82501
G01 X-41.34528 Y50.58142
G01 X-41.27233 Y50.37462
G01 X-41.17446 Y50.20784
G01 X-41.00723 Y50.02824
G01 X-40.84998 Y49.91569
G01 X-40.64944 Y49.82641
G01 X-40.40860 Y49.77939
G01 X-40.24137 Y49.77939
G01 X-40.02656 Y49.81948
G01 X-38.32499 Y48.11790
G01 X-38.32499 Y47.07501
G01 X-38.82626 Y47.07021
G01 X-38.95427 Y47.00178
G01 X-39.02268 Y46.87379
G01 X-39.02748 Y44.82502
G01 X-38.98536 Y44.68611
G01 X-38.87315 Y44.59404
G01 X-38.77749 Y44.57501
G01 X-36.87249 Y44.57501
G01 X-36.77681 Y44.59404
G01 X-36.69571 Y44.64824
G01 X-36.64153 Y44.72934
G01 X-36.62248 Y44.82502
G04 P0 ( dwell for no time -- G64 should not smooth over this point )
G00 Z2.00000 ( retract )

G00 X-43.65498 Y44.83861 ( rapid move to begin. )
G01 F20.00000
G01 Z-0.10000
G04 P0 ( dwell for no time -- G64 should not smooth over this point )
G01 F40.00000
G01 X-43.65498 Y44.83861
G01 X-43.74946 Y44.91446
G01 X-43.90161 Y45.09579
G01 X-44.02104 Y45.32101
G01 X-43.86135 Y45.05037
G01 X-43.65498 Y44.83861
G04 P0 ( dwell for no time -- G64 should not smooth over this point )
G00 Z2.00000 ( retract )

G00 X-44.12894 Y40.32099 ( rapid move to begin. )
G01 F20.00000
G01 Z-0.10000
G04 P0 ( dwell for no time -- G64 should not smooth over this point )
G01 F40.00000
G01 X-44.12894 Y40.32099
G01 X-44.25789 Y40.09265
G01 X-44.42185 Y39.90238
G01 X-44.62180 Y39.75036
G01 X-44.74098 Y39.68513
G01 X-44.58510 Y39.76631
G01 X-44.40054 Y39.91444
G01 X-44.24837 Y40.09577
G01 X-44.12894 Y40.32099
G04 P0 ( dwell for no time -- G64 should not smooth over this point )
G00 Z2.00000 ( retract )

G00 X-44.12894 Y41.32902 ( rapid move to begin. )
G01 F20.00000
G01 Z-0.10000
G04 P0 ( dwell for no time -- G64 should not smooth over this point )
G01 F40.00000
G01 X-44.12894 Y41.32902
G01 X-44.25789 Y41.55739
G01 X-44.37918 Y41.71017
G01 X-44.24837 Y41.55426
G01 X-44.12894 Y41.32902
G04 P0 ( dwell for no time -- G64 should not smooth over this point )
G00 Z2.00000 ( retract )

G00 X-46.77498 Y44.82502 ( rapid move to begin. )
G01 F20.00000
G01 Z-0.10000
G04 P0 ( dwell for no time -- G64 should not smooth over this point )
G01 F40.00000
G01 X-46.77498 Y44.82502
G01 X-46.80470 Y45.06861
G01 X-46.87765 Y45.27539
G01 X-46.97552 Y45.44219
G01 X-47.14273 Y45.62177
G01 X-47.29998 Y45.73434
G01 X-47.47610 Y45.81425
G01 X-47.74135 Y45.87064
G01 X-47.96058 Y45.86518
G01 X-48.12418 Y45.83041
G01 X-48.34999 Y45.73434
G01 X-48.54608 Y45.58682
G01 X-48.67445 Y45.44219
G01 X-48.77234 Y45.27539
G01 X-48.84526 Y45.06861
G01 X-48.87498 Y44.82502
G01 X-48.85613 Y44.63254
G01 X-48.82819 Y44.52891
G01 X-50.72611 Y42.62251
G01 X-50.77645 Y42.53854
G01 X-50.81897 Y42.39828
G01 X-50.82499 Y42.07502
G01 X-51.32626 Y42.07022
G01 X-51.45427 Y42.00179
G01 X-51.50845 Y41.92069
G01 X-51.52748 Y41.82500
G01 X-51.52748 Y39.82501
G01 X-51.50845 Y39.72935
G01 X-51.45427 Y39.64822
G01 X-51.37315 Y39.59405
G01 X-51.27749 Y39.57502
G01 X-49.37249 Y39.57502
G01 X-49.27681 Y39.59405
G01 X-49.19571 Y39.64822
G01 X-49.14153 Y39.72935
G01 X-49.12248 Y39.82501
G01 X-49.12730 Y41.87380
G01 X-49.16462 Y41.96392
G01 X-49.27681 Y42.05599
G01 X-49.37249 Y42.07502
G01 X-49.82499 Y42.07502
G01 X-49.82499 Y42.11792
G01 X-48.12342 Y43.81946
G01 X-47.90861 Y43.77941
G01 X-47.74135 Y43.77941
G01 X-47.52581 Y43.81964
G01 X-47.29998 Y43.91568
G01 X-47.12241 Y44.04471
G01 X-46.97552 Y44.20783
G01 X-46.85639 Y44.42236
G01 X-46.79383 Y44.63254
G01 X-46.77498 Y44.82502
G04 P0 ( dwell for no time -- G64 should not smooth over this point )
G00 Z2.00000 ( retract )

G00 X-51.12250 Y44.82502 ( rapid move to begin. )
G01 F20.00000
G01 Z-0.10000
G04 P0 ( dwell for no time -- G64 should not smooth over this point )
G01 F40.00000
G01 X-51.12250 Y44.82502
G01 X-51.12730 Y46.87379
G01 X-51.19570 Y47.00178
G01 X-51.32372 Y47.07021
G01 X-51.82499 Y47.07501
G01 X-51.82499 Y48.32502
G01 X-51.84056 Y48.44635
G01 X-51.89664 Y48.58176
G01 X-51.97144 Y48.67856
G01 X-53.82178 Y50.52890
G01 X-53.79384 Y50.63256
G01 X-53.77500 Y50.82501
G01 X-53.80471 Y51.06860
G01 X-53.87764 Y51.27540
G01 X-53.96128 Y51.42023
G01 X-54.12239 Y51.60532
G01 X-54.32331 Y51.74622
G01 X-54.50052 Y51.82361
G01 X-54.68940 Y51.86517
G01 X-54.96059 Y51.86517
G01 X-55.14947 Y51.82361
G01 X-55.35000 Y51.73433
G01 X-55.52757 Y51.60532
G01 X-55.67446 Y51.44218
G01 X-55.79358 Y51.22765
G01 X-55.85614 Y51.01747
G01 X-55.87499 Y50.82501
G01 X-55.84527 Y50.58142
G01 X-55.77232 Y50.37462
G01 X-55.67446 Y50.20784
G01 X-55.50725 Y50.02824
G01 X-55.35000 Y49.91569
G01 X-55.14947 Y49.82641
G01 X-54.90860 Y49.77939
G01 X-54.74136 Y49.77939
G01 X-54.52656 Y49.81948
G01 X-52.82498 Y48.11790
G01 X-52.82498 Y47.07501
G01 X-53.32625 Y47.07021
G01 X-53.45427 Y47.00178
G01 X-53.52267 Y46.87379
G01 X-53.52750 Y44.82502
G01 X-53.48536 Y44.68611
G01 X-53.37317 Y44.59404
G01 X-53.27749 Y44.57501
G01 X-51.37249 Y44.57501
G01 X-51.27680 Y44.59404
G01 X-51.19570 Y44.64824
G01 X-51.14152 Y44.72934
G01 X-51.12250 Y44.82502
G04 P0 ( dwell for no time -- G64 should not smooth over this point )
G00 Z2.00000 ( retract )

G00 X-58.15500 Y44.83861 ( rapid move to begin. )
G01 F20.00000
G01 Z-0.10000
G04 P0 ( dwell for no time -- G64 should not smooth over this point )
G01 F40.00000
G01 X-58.15500 Y44.83861
G01 X-58.24948 Y44.91446
G01 X-58.40161 Y45.09579
G01 X-58.52106 Y45.32101
G01 X-58.36137 Y45.05037
G01 X-58.15500 Y44.83861
G04 P0 ( dwell for no time -- G64 should not smooth over this point )
G00 Z2.00000 ( retract )

G00 X-59.12893 Y40.32102 ( rapid move to begin. )
G01 F20.00000
G01 Z-0.10000
G04 P0 ( dwell for no time -- G64 should not smooth over this point )
G01 F40.00000
G01 X-59.12893 Y40.32102
G01 X-59.27214 Y40.07070
G01 X-59.42185 Y39.90238
G01 X-59.62180 Y39.75036
G01 X-59.74097 Y39.68513
G01 X-59.58509 Y39.76631
G01 X-59.40056 Y39.91439
G01 X-59.24834 Y40.09580
G01 X-59.12893 Y40.32102
G04 P0 ( dwell for no time -- G64 should not smooth over this point )
G00 Z2.00000 ( retract )

G00 X-61.77498 Y44.82502 ( rapid move to begin. )
G01 F20.00000
G01 Z-0.10000
G04 P0 ( dwell for no time -- G64 should not smooth over this point )
G01 F40.00000
G01 X-61.77498 Y44.82502
G01 X-61.80470 Y45.06861
G01 X-61.87765 Y45.27539
G01 X-61.97551 Y45.44219
G01 X-62.14275 Y45.62177
G01 X-62.30000 Y45.73434
G01 X-62.47610 Y45.81425
G01 X-62.68938 Y45.86518
G01 X-62.96060 Y45.86518
G01 X-63.14945 Y45.82362
G01 X-63.32667 Y45.74623
G01 X-63.54607 Y45.58682
G01 X-63.68872 Y45.42025
G01 X-63.79359 Y45.22766
G01 X-63.84526 Y45.06861
G01 X-63.87498 Y44.82502
G01 X-63.85613 Y44.63254
G01 X-63.82821 Y44.52891
G01 X-65.72610 Y42.62251
G01 X-65.77644 Y42.53854
G01 X-65.81899 Y42.39828
G01 X-65.82498 Y42.07502
G01 X-66.32625 Y42.07022
G01 X-66.45427 Y42.00179
G01 X-66.50845 Y41.92069
G01 X-66.52750 Y41.82500
G01 X-66.52750 Y39.82501
G01 X-66.50845 Y39.72935
G01 X-66.45427 Y39.64822
G01 X-66.37317 Y39.59405
G01 X-66.27748 Y39.57502
G01 X-64.37248 Y39.57502
G01 X-64.27683 Y39.59405
G01 X-64.19570 Y39.64822
G01 X-64.14152 Y39.72935
G01 X-64.12250 Y39.82501
G01 X-64.12730 Y41.87380
G01 X-64.16461 Y41.96392
G01 X-64.27680 Y42.05599
G01 X-64.37248 Y42.07502
G01 X-64.82499 Y42.07502
G01 X-64.82499 Y42.11792
G01 X-63.12341 Y43.81946
G01 X-62.90861 Y43.77941
G01 X-62.74137 Y43.77941
G01 X-62.52580 Y43.81964
G01 X-62.30000 Y43.91568
G01 X-62.12240 Y44.04471
G01 X-61.97551 Y44.20783
G01 X-61.85639 Y44.42236
G01 X-61.79383 Y44.63254
G01 X-61.77498 Y44.82502
G04 P0 ( dwell for no time -- G64 should not smooth over this point )
G00 Z2.00000 ( retract )

G00 X-66.62249 Y44.82502 ( rapid move to begin. )
G01 F20.00000
G01 Z-0.10000
G04 P0 ( dwell for no time -- G64 should not smooth over this point )
G01 F40.00000
G01 X-66.62249 Y44.82502
G01 X-66.62729 Y46.87379
G01 X-66.69572 Y47.00178
G01 X-66.82371 Y47.07021
G01 X-67.32498 Y47.07501
G01 X-67.32498 Y48.32502
G01 X-67.34055 Y48.44635
G01 X-67.39663 Y48.58176
G01 X-67.47144 Y48.67856
G01 X-69.32178 Y50.52890
G01 X-69.29384 Y50.63256
G01 X-69.27499 Y50.82501
G01 X-69.30471 Y51.06860
G01 X-69.37766 Y51.27540
G01 X-69.46127 Y51.42023
G01 X-69.62241 Y51.60532
G01 X-69.82330 Y51.74622
G01 X-70.00052 Y51.82361
G01 X-70.18939 Y51.86517
G01 X-70.46059 Y51.86517
G01 X-70.64946 Y51.82361
G01 X-70.84999 Y51.73433
G01 X-71.02756 Y51.60532
G01 X-71.17445 Y51.44218
G01 X-71.29358 Y51.22765
G01 X-71.35614 Y51.01747
G01 X-71.37499 Y50.82501
G01 X-71.34527 Y50.58142
G01 X-71.27232 Y50.37462
G01 X-71.17445 Y50.20784
G01 X-71.00724 Y50.02824
G01 X-70.84999 Y49.91569
G01 X-70.64946 Y49.82641
G01 X-70.40862 Y49.77939
G01 X-70.24136 Y49.77939
G01 X-70.02655 Y49.81948
G01 X-68.32498 Y48.11790
G01 X-68.32498 Y47.07501
G01 X-68.82625 Y47.07021
G01 X-68.95426 Y47.00178
G01 X-69.02269 Y46.87379
G01 X-69.02749 Y44.82502
G01 X-68.98535 Y44.68611
G01 X-68.87316 Y44.59404
G01 X-68.77748 Y44.57501
G01 X-66.87248 Y44.57501
G01 X-66.77682 Y44.59404
G01 X-66.69572 Y44.64824
G01 X-66.64152 Y44.72934
G01 X-66.62249 Y44.82502
G04 P0 ( dwell for no time -- G64 should not smooth over this point )
G00 Z2.00000 ( retract )

G00 X-74.02106 Y45.32101 ( rapid move to begin. )
G01 F20.00000
G01 Z-0.10000
G04 P0 ( dwell for no time -- G64 should not smooth over this point )
G01 F40.00000
G01 X-74.02106 Y45.32101
G01 X-73.97478 Y45.23587
G04 P0 ( dwell for no time -- G64 should not smooth over this point )
G00 Z2.00000 ( retract )

G00 X-75.12893 Y40.32102 ( rapid move to begin. )
G01 F20.00000
G01 Z-0.10000
G04 P0 ( dwell for no time -- G64 should not smooth over this point )
G01 F40.00000
G01 X-75.12893 Y40.32102
G01 X-75.25788 Y40.09265
G01 X-75.42187 Y39.90238
G01 X-75.62179 Y39.75036
G01 X-75.74099 Y39.68513
G01 X-75.58509 Y39.76628
G01 X-75.40048 Y39.91447
G01 X-75.24831 Y40.09585
G01 X-75.12893 Y40.32102
G04 P0 ( dwell for no time -- G64 should not smooth over this point )
G00 Z2.00000 ( retract )

G00 X-75.12893 Y41.32902 ( rapid move to begin. )
G01 F20.00000
G01 Z-0.10000
G04 P0 ( dwell for no time -- G64 should not smooth over this point )
G01 F40.00000
G01 X-75.12893 Y41.32902
G01 X-75.25788 Y41.55739
G01 X-75.37917 Y41.71017
G01 X-75.24836 Y41.55424
G01 X-75.12893 Y41.32902
G04 P0 ( dwell for no time -- G64 should not smooth over this point )
G00 Z2.00000 ( retract )

G00 X-77.77500 Y44.82502 ( rapid move to begin. )
G01 F20.00000
G01 Z-0.10000
G04 P0 ( dwell for no time -- G64 should not smooth over this point )
G01 F40.00000
G01 X-77.77500 Y44.82502
G01 X-77.79385 Y45.01748
G01 X-77.85638 Y45.22766
G01 X-77.97553 Y45.44219
G01 X-78.14274 Y45.62177
G01 X-78.29999 Y45.73434
G01 X-78.47609 Y45.81425
G01 X-78.68940 Y45.86518
G01 X-78.96059 Y45.86518
G01 X-79.14944 Y45.82362
G01 X-79.32666 Y45.74623
G01 X-79.54609 Y45.58682
G01 X-79.68871 Y45.42025
G01 X-79.79359 Y45.22766
G01 X-79.84528 Y45.06861
G01 X-79.87499 Y44.82502
G01 X-79.85615 Y44.63254
G01 X-79.82821 Y44.52891
G01 X-81.72610 Y42.62251
G01 X-81.77644 Y42.53854
G01 X-81.81898 Y42.39828
G01 X-81.82498 Y42.07502
G01 X-82.32627 Y42.07022
G01 X-82.41639 Y42.03288
G01 X-82.50847 Y41.92069
G01 X-82.52749 Y41.82500
G01 X-82.52749 Y39.82501
G01 X-82.50847 Y39.72935
G01 X-82.45426 Y39.64822
G01 X-82.37316 Y39.59405
G01 X-82.27748 Y39.57502
G01 X-80.37248 Y39.57502
G01 X-80.27682 Y39.59405
G01 X-80.19572 Y39.64822
G01 X-80.14152 Y39.72935
G01 X-80.12249 Y39.82501
G01 X-80.12729 Y41.87380
G01 X-80.16463 Y41.96392
G01 X-80.27682 Y42.05599
G01 X-80.37248 Y42.07502
G01 X-80.82498 Y42.07502
G01 X-80.82498 Y42.11789
G01 X-79.12343 Y43.81946
G01 X-78.90860 Y43.77941
G01 X-78.74137 Y43.77941
G01 X-78.52580 Y43.81964
G01 X-78.29999 Y43.91568
G01 X-78.12239 Y44.04471
G01 X-77.97553 Y44.20783
G01 X-77.85638 Y44.42236
G01 X-77.79385 Y44.63254
G01 X-77.77500 Y44.82502
G04 P0 ( dwell for no time -- G64 should not smooth over this point )
G00 Z2.00000 ( retract )

G00 X-83.12249 Y44.82502 ( rapid move to begin. )
G01 F20.00000
G01 Z-0.10000
G04 P0 ( dwell for no time -- G64 should not smooth over this point )
G01 F40.00000
G01 X-83.12249 Y44.82502
G01 X-83.12729 Y46.87379
G01 X-83.19571 Y47.00178
G01 X-83.32370 Y47.07021
G01 X-83.82500 Y47.07501
G01 X-83.82500 Y48.82501
G01 X-83.84054 Y48.94635
G01 X-83.89665 Y49.08176
G01 X-83.97143 Y49.17856
G01 X-85.82177 Y51.02890
G01 X-85.79383 Y51.13255
G01 X-85.77498 Y51.32501
G01 X-85.80470 Y51.56860
G01 X-85.87765 Y51.77540
G01 X-85.96127 Y51.92023
G01 X-86.12240 Y52.10532
G01 X-86.32329 Y52.24622
G01 X-86.50051 Y52.32361
G01 X-86.68938 Y52.36517
G01 X-86.96058 Y52.36517
G01 X-87.14945 Y52.32361
G01 X-87.34999 Y52.23433
G01 X-87.52758 Y52.10532
G01 X-87.67445 Y51.94218
G01 X-87.79360 Y51.72765
G01 X-87.85613 Y51.51747
G01 X-87.87498 Y51.32501
G01 X-87.84526 Y51.08142
G01 X-87.77234 Y50.87462
G01 X-87.67445 Y50.70784
G01 X-87.50724 Y50.52824
G01 X-87.34999 Y50.41569
G01 X-87.14945 Y50.32641
G01 X-86.90861 Y50.27939
G01 X-86.74138 Y50.27939
G01 X-86.52654 Y50.31947
G01 X-84.82500 Y48.61790
G01 X-84.82500 Y47.07501
G01 X-85.32627 Y47.07021
G01 X-85.45426 Y47.00178
G01 X-85.52268 Y46.87379
G01 X-85.52748 Y44.82502
G01 X-85.48535 Y44.68611
G01 X-85.37315 Y44.59404
G01 X-85.27750 Y44.57501
G01 X-83.37250 Y44.57501
G01 X-83.27682 Y44.59404
G01 X-83.19571 Y44.64824
G01 X-83.14151 Y44.72934
G01 X-83.12249 Y44.82502
G04 P0 ( dwell for no time -- G64 should not smooth over this point )
G00 Z2.00000 ( retract )

G00 X-90.26611 Y44.94456 ( rapid move to begin. )
G01 F20.00000
G01 Z-0.10000
G04 P0 ( dwell for no time -- G64 should not smooth over this point )
G01 F40.00000
G01 X-90.26611 Y44.94456
G01 X-90.39209 Y45.09264
G01 X-90.52105 Y45.32101
G01 X-90.40162 Y45.09579
G01 X-90.26611 Y44.94456
G04 P0 ( dwell for no time -- G64 should not smooth over this point )
G00 Z2.00000 ( retract )

G00 X-91.67281 Y41.41652 ( rapid move to begin. )
G01 F20.00000
G01 Z-0.10000
G04 P0 ( dwell for no time -- G64 should not smooth over this point )
G01 F40.00000
G01 X-91.67281 Y41.41652
G01 X-91.62892 Y41.32902
G04 P0 ( dwell for no time -- G64 should not smooth over this point )
G00 Z2.00000 ( retract )

G00 X-91.62892 Y40.32102 ( rapid move to begin. )
G01 F20.00000
G01 Z-0.10000
G04 P0 ( dwell for no time -- G64 should not smooth over this point )
G01 F40.00000
G01 X-91.62892 Y40.32102
G01 X-91.74833 Y40.09580
G01 X-91.90057 Y39.91439
G01 X-92.08508 Y39.76631
G01 X-92.24098 Y39.68513
G01 X-92.12178 Y39.75036
G01 X-91.92186 Y39.90238
G01 X-91.75790 Y40.09265
G01 X-91.62892 Y40.32102
G04 P0 ( dwell for no time -- G64 should not smooth over this point )
G00 Z2.00000 ( retract )

G00 X-94.27499 Y44.82502 ( rapid move to begin. )
G01 F20.00000
G01 Z-0.10000
G04 P0 ( dwell for no time -- G64 should not smooth over this point )
G01 F40.00000
G01 X-94.27499 Y44.82502
G01 X-94.30471 Y44.58144
G01 X-94.37763 Y44.37463
G01 X-94.47552 Y44.20783
G01 X-94.62241 Y44.04471
G01 X-94.79998 Y43.91568
G01 X-95.02579 Y43.81964
G01 X-95.24136 Y43.77941
G01 X-95.40862 Y43.77941
G01 X-95.62343 Y43.81946
G01 X-97.32500 Y42.11789
G01 X-97.32500 Y42.07502
G01 X-96.87250 Y42.07502
G01 X-96.77681 Y42.05599
G01 X-96.66462 Y41.96392
G01 X-96.62728 Y41.87380
G01 X-96.62248 Y39.82501
G01 X-96.64151 Y39.72935
G01 X-96.69571 Y39.64822
G01 X-96.77681 Y39.59405
G01 X-96.87250 Y39.57502
G01 X-98.77750 Y39.57502
G01 X-98.87315 Y39.59405
G01 X-98.95425 Y39.64822
G01 X-99.00846 Y39.72935
G01 X-99.02748 Y39.82501
G01 X-99.02748 Y41.82500
G01 X-99.00846 Y41.92069
G01 X-98.91638 Y42.03288
G01 X-98.82626 Y42.07022
G01 X-98.32500 Y42.07502
G01 X-98.31898 Y42.39828
G01 X-98.29520 Y42.49325
G01 X-98.22611 Y42.62251
G01 X-96.32820 Y44.52891
G01 X-96.35614 Y44.63254
G01 X-96.37499 Y44.82502
G01 X-96.34527 Y45.06861
G01 X-96.29358 Y45.22766
G01 X-96.18870 Y45.42025
G01 X-96.04608 Y45.58682
G01 X-95.84999 Y45.73434
G01 X-95.62419 Y45.83041
G01 X-95.46059 Y45.86518
G01 X-95.24136 Y45.87064
G01 X-94.97608 Y45.81425
G01 X-94.79998 Y45.73434
G01 X-94.64273 Y45.62177
G01 X-94.47552 Y45.44219
G01 X-94.37763 Y45.27539
G01 X-94.30471 Y45.06861
G01 X-94.27499 Y44.82502
G04 P0 ( dwell for no time -- G64 should not smooth over this point )
G00 Z2.00000 ( retract )

G00 X-100.12248 Y44.82502 ( rapid move to begin. )
G01 F20.00000
G01 Z-0.10000
G04 P0 ( dwell for no time -- G64 should not smooth over this point )
G01 F40.00000
G01 X-100.12248 Y44.82502
G01 X-100.12730 Y46.87379
G01 X-100.19571 Y47.00178
G01 X-100.32372 Y47.07021
G01 X-100.82499 Y47.07501
G01 X-100.82499 Y48.82501
G01 X-100.84056 Y48.94635
G01 X-100.89664 Y49.08176
G01 X-100.97145 Y49.17856
G01 X-102.82179 Y51.02890
G01 X-102.79385 Y51.13255
G01 X-102.77500 Y51.32501
G01 X-102.80472 Y51.56860
G01 X-102.85638 Y51.72765
G01 X-102.96126 Y51.92023
G01 X-103.12239 Y52.10532
G01 X-103.32331 Y52.24622
G01 X-103.50052 Y52.32361
G01 X-103.68940 Y52.36517
G01 X-103.96059 Y52.36517
G01 X-104.14944 Y52.32361
G01 X-104.34998 Y52.23433
G01 X-104.52757 Y52.10532
G01 X-104.67446 Y51.94218
G01 X-104.79359 Y51.72765
G01 X-104.85615 Y51.51747
G01 X-104.87499 Y51.32501
G01 X-104.84528 Y51.08142
G01 X-104.77233 Y50.87462
G01 X-104.67446 Y50.70784
G01 X-104.50723 Y50.52824
G01 X-104.34998 Y50.41569
G01 X-104.14944 Y50.32641
G01 X-103.90860 Y50.27939
G01 X-103.74137 Y50.27939
G01 X-103.52656 Y50.31947
G01 X-101.82499 Y48.61790
G01 X-101.82499 Y47.07501
G01 X-102.32626 Y47.07021
G01 X-102.45427 Y47.00178
G01 X-102.52268 Y46.87379
G01 X-102.52748 Y44.82502
G01 X-102.48536 Y44.68611
G01 X-102.37315 Y44.59404
G01 X-102.27749 Y44.57501
G01 X-100.37249 Y44.57501
G01 X-100.27681 Y44.59404
G01 X-100.19571 Y44.64824
G01 X-100.14153 Y44.72934
G01 X-100.12248 Y44.82502
G04 P0 ( dwell for no time -- G64 should not smooth over this point )
G00 Z2.00000 ( retract )

G00 X-107.15497 Y44.83861 ( rapid move to begin. )
G01 F20.00000
G01 Z-0.10000
G04 P0 ( dwell for no time -- G64 should not smooth over this point )
G01 F40.00000
G01 X-107.15497 Y44.83861
G01 X-107.24946 Y44.91446
G01 X-107.40166 Y45.09584
G01 X-107.52107 Y45.32101
G01 X-107.36135 Y45.05037
G01 X-107.15497 Y44.83861
G04 P0 ( dwell for no time -- G64 should not smooth over this point )
G00 Z2.00000 ( retract )

G00 X-107.52107 Y46.32901 ( rapid move to begin. )
G01 F20.00000
G01 Z-0.10000
G04 P0 ( dwell for no time -- G64 should not smooth over this point )
G01 F40.00000
G01 X-107.52107 Y46.32901
G01 X-107.47479 Y46.41415
G04 P0 ( dwell for no time -- G64 should not smooth over this point )
G00 Z2.00000 ( retract )

G00 X-110.77498 Y44.82502 ( rapid move to begin. )
G01 F20.00000
G01 Z-0.10000
G04 P0 ( dwell for no time -- G64 should not smooth over this point )
G01 F40.00000
G01 X-110.77498 Y44.82502
G01 X-110.79383 Y44.63254
G01 X-110.85639 Y44.42236
G01 X-110.97552 Y44.20783
G01 X-111.12240 Y44.04471
G01 X-111.29998 Y43.91568
G01 X-111.52581 Y43.81964
G01 X-111.74138 Y43.77941
G01 X-111.90861 Y43.77941
G01 X-112.12342 Y43.81946
G01 X-113.82499 Y42.11792
G01 X-113.82499 Y42.07502
G01 X-113.41249 Y42.07502
G01 X-113.31681 Y42.05599
G01 X-113.20462 Y41.96392
G01 X-113.16728 Y41.87380
G01 X-113.16248 Y39.82501
G01 X-113.18151 Y39.72935
G01 X-113.23571 Y39.64822
G01 X-113.31681 Y39.59405
G01 X-113.41249 Y39.57502
G01 X-115.31749 Y39.57502
G01 X-115.41315 Y39.59405
G01 X-115.49425 Y39.64822
G01 X-115.54846 Y39.72935
G01 X-115.56748 Y39.82501
G01 X-115.56748 Y41.82500
G01 X-115.54846 Y41.92069
G01 X-115.45638 Y42.03288
G01 X-115.36626 Y42.07022
G01 X-114.82499 Y42.07502
G01 X-114.81897 Y42.39828
G01 X-114.77645 Y42.53854
G01 X-114.72611 Y42.62251
G01 X-112.82819 Y44.52891
G01 X-112.85613 Y44.63254
G01 X-112.87498 Y44.82502
G01 X-112.84526 Y45.06861
G01 X-112.77234 Y45.27539
G01 X-112.67445 Y45.44219
G01 X-112.54607 Y45.58682
G01 X-112.34999 Y45.73434
G01 X-112.12418 Y45.83041
G01 X-111.96058 Y45.86518
G01 X-111.74138 Y45.87064
G01 X-111.47610 Y45.81425
G01 X-111.29998 Y45.73434
G01 X-111.14272 Y45.62177
G01 X-110.97552 Y45.44219
G01 X-110.87765 Y45.27539
G01 X-110.80470 Y45.06861
G01 X-110.77498 Y44.82502
G04 P0 ( dwell for no time -- G64 should not smooth over this point )
G00 Z2.00000 ( retract )

G00 X-108.16892 Y40.32099 ( rapid move to begin. )
G01 F20.00000
G01 Z-0.10000
G04 P0 ( dwell for no time -- G64 should not smooth over this point )
G01 F40.00000
G01 X-108.16892 Y40.32099
G01 X-108.28832 Y40.09585
G01 X-108.44049 Y39.91444
G01 X-108.62508 Y39.76628
G01 X-108.78101 Y39.68513
G01 X-108.66178 Y39.75036
G01 X-108.46186 Y39.90238
G01 X-108.29790 Y40.09265
G01 X-108.16892 Y40.32099
G04 P0 ( dwell for no time -- G64 should not smooth over this point )
G00 Z2.00000 ( retract )

G00 X-115.62250 Y44.82502 ( rapid move to begin. )
G01 F20.00000
G01 Z-0.10000
G04 P0 ( dwell for no time -- G64 should not smooth over this point )
G01 F40.00000
G01 X-115.62250 Y44.82502
G01 X-115.62730 Y46.87379
G01 X-115.69570 Y47.00178
G01 X-115.82372 Y47.07021
G01 X-116.32498 Y47.07501
G01 X-116.32498 Y48.82501
G01 X-116.34055 Y48.94635
G01 X-116.39664 Y49.08176
G01 X-116.47144 Y49.17856
G01 X-118.32178 Y51.02890
G01 X-118.29384 Y51.13255
G01 X-118.27499 Y51.32501
G01 X-118.30471 Y51.56860
G01 X-118.37763 Y51.77540
G01 X-118.46128 Y51.92023
G01 X-118.62239 Y52.10532
G01 X-118.82330 Y52.24622
G01 X-119.00052 Y52.32361
G01 X-119.18939 Y52.36517
G01 X-119.46059 Y52.36517
G01 X-119.64946 Y52.32361
G01 X-119.85000 Y52.23433
G01 X-120.02757 Y52.10532
G01 X-120.17446 Y51.94218
G01 X-120.29358 Y51.72765
G01 X-120.35614 Y51.51747
G01 X-120.37499 Y51.32501
G01 X-120.34527 Y51.08142
G01 X-120.27232 Y50.87462
G01 X-120.17446 Y50.70784
G01 X-120.00725 Y50.52824
G01 X-119.85000 Y50.41569
G01 X-119.64946 Y50.32641
G01 X-119.40862 Y50.27939
G01 X-119.24136 Y50.27939
G01 X-119.02655 Y50.31947
G01 X-117.32498 Y48.61790
G01 X-117.32498 Y47.07501
G01 X-117.82625 Y47.07021
G01 X-117.95427 Y47.00178
G01 X-118.02270 Y46.87379
G01 X-118.02750 Y44.82502
G01 X-117.98536 Y44.68611
G01 X-117.87317 Y44.59404
G01 X-117.77748 Y44.57501
G01 X-115.87248 Y44.57501
G01 X-115.77683 Y44.59404
G01 X-115.69570 Y44.64824
G01 X-115.64152 Y44.72934
G01 X-115.62250 Y44.82502
G04 P0 ( dwell for no time -- G64 should not smooth over this point )
G00 Z2.00000 ( retract )

G00 X-122.57498 Y46.86566 ( rapid move to begin. )
G01 F20.00000
G01 Z-0.10000
G04 P0 ( dwell for no time -- G64 should not smooth over this point )
G01 F40.00000
G01 X-122.57498 Y46.86566
G01 X-122.72812 Y46.74765
G01 X-122.86137 Y46.59967
G01 X-123.02103 Y46.32901
G01 X-122.90163 Y46.55423
G01 X-122.74951 Y46.73556
G01 X-122.57498 Y46.86566
G04 P0 ( dwell for no time -- G64 should not smooth over this point )
G00 Z2.00000 ( retract )

G00 X-122.65499 Y44.83861 ( rapid move to begin. )
G01 F20.00000
G01 Z-0.10000
G04 P0 ( dwell for no time -- G64 should not smooth over this point )
G01 F40.00000
G01 X-122.65499 Y44.83861
G01 X-122.74951 Y44.91448
G01 X-122.90160 Y45.09579
G01 X-123.02103 Y45.32101
G01 X-122.86137 Y45.05037
G01 X-122.65499 Y44.83861
G04 P0 ( dwell for no time -- G64 should not smooth over this point )
G00 Z2.00000 ( retract )

G00 X-126.27498 Y44.82502 ( rapid move to begin. )
G01 F20.00000
G01 Z-0.10000
G04 P0 ( dwell for no time -- G64 should not smooth over this point )
G01 F40.00000
G01 X-126.27498 Y44.82502
G01 X-126.29385 Y44.63254
G01 X-126.35638 Y44.42236
G01 X-126.47551 Y44.20783
G01 X-126.62240 Y44.04471
G01 X-126.80000 Y43.91568
G01 X-127.02580 Y43.81964
G01 X-127.24137 Y43.77941
G01 X-127.40860 Y43.77941
G01 X-127.62344 Y43.81946
G01 X-129.32498 Y42.11792
G01 X-129.32498 Y42.07502
G01 X-128.95249 Y42.07502
G01 X-128.85681 Y42.05599
G01 X-128.74462 Y41.96392
G01 X-128.70728 Y41.87380
G01 X-128.70248 Y39.82501
G01 X-128.72151 Y39.72935
G01 X-128.77571 Y39.64822
G01 X-128.85681 Y39.59405
G01 X-128.95249 Y39.57502
G01 X-130.85749 Y39.57502
G01 X-130.95315 Y39.59405
G01 X-131.03425 Y39.64822
G01 X-131.08846 Y39.72935
G01 X-131.10748 Y39.82501
G01 X-131.10748 Y41.82500
G01 X-131.08846 Y41.92069
G01 X-131.03428 Y42.00179
G01 X-130.90626 Y42.07022
G01 X-130.32498 Y42.07502
G01 X-130.31899 Y42.39828
G01 X-130.27644 Y42.53854
G01 X-130.22610 Y42.62251
G01 X-128.32821 Y44.52891
G01 X-128.35613 Y44.63254
G01 X-128.37500 Y44.82502
G01 X-128.34528 Y45.06861
G01 X-128.29359 Y45.22766
G01 X-128.18872 Y45.42025
G01 X-128.04607 Y45.58682
G01 X-127.82666 Y45.74623
G01 X-127.64945 Y45.82362
G01 X-127.46060 Y45.86518
G01 X-127.18938 Y45.86518
G01 X-126.97609 Y45.81425
G01 X-126.80000 Y45.73434
G01 X-126.64274 Y45.62177
G01 X-126.47551 Y45.44219
G01 X-126.37764 Y45.27539
G01 X-126.30470 Y45.06861
G01 X-126.27498 Y44.82502
G04 P0 ( dwell for no time -- G64 should not smooth over this point )
G00 Z2.00000 ( retract )

G00 X-123.70894 Y40.32099 ( rapid move to begin. )
G01 F20.00000
G01 Z-0.10000
G04 P0 ( dwell for no time -- G64 should not smooth over this point )
G01 F40.00000
G01 X-123.70894 Y40.32099
G01 X-123.82832 Y40.09585
G01 X-123.98052 Y39.91444
G01 X-124.16508 Y39.76631
G01 X-124.32098 Y39.68513
G01 X-124.20178 Y39.75036
G01 X-124.00186 Y39.90238
G01 X-123.85215 Y40.07070
G01 X-123.70894 Y40.32099
G04 P0 ( dwell for no time -- G64 should not smooth over this point )
G00 Z2.00000 ( retract )

G00 X-96.84405 Y16.32119 ( rapid move to begin. )
G01 F20.00000
G01 Z-0.10000
G04 P0 ( dwell for no time -- G64 should not smooth over this point )
G01 F40.00000
G01 X-96.84405 Y16.32119
G01 X-96.86998 Y16.08744
G01 X-96.94136 Y15.86336
G01 X-97.08141 Y15.61258
G01 X-97.27661 Y15.40194
G01 X-97.46767 Y15.26478
G01 X-97.68197 Y15.16791
G01 X-97.96200 Y15.10418
G01 X-98.24918 Y15.10827
G01 X-98.50338 Y15.16791
G01 X-98.71768 Y15.26478
G01 X-98.90876 Y15.40194
G01 X-99.11821 Y15.63453
G01 X-99.24399 Y15.86336
G01 X-99.31537 Y16.08744
G01 X-99.34130 Y16.37347
G01 X-99.31537 Y16.60725
G01 X-99.24839 Y16.81776
G01 X-104.82531 Y22.39469
G01 X-104.93120 Y22.52939
G01 X-105.02463 Y22.75489
G01 X-105.04500 Y22.92502
G01 X-105.04500 Y30.84705
G01 X-105.10177 Y30.88825
G01 X-105.14342 Y30.94590
G01 X-110.47498 Y25.61434
G01 X-110.47978 Y24.17625
G01 X-110.54821 Y24.04823
G01 X-110.67620 Y23.97983
G01 X-112.92499 Y23.97500
G01 X-113.06388 Y24.01714
G01 X-113.13287 Y24.08613
G01 X-113.17018 Y24.17625
G01 X-113.17498 Y24.61434
G01 X-119.37563 Y30.81502
G01 X-120.27433 Y30.81502
G01 X-125.97498 Y25.11437
G01 X-125.97978 Y24.01625
G01 X-126.04821 Y23.88823
G01 X-126.12931 Y23.83403
G01 X-126.22499 Y23.81501
G01 X-127.27434 Y23.81501
G01 X-127.39535 Y23.71140
G01 X-127.53230 Y23.63548
G01 X-127.70766 Y23.58425
G01 X-127.83807 Y23.57604
G01 X-127.99352 Y23.59512
G01 X-128.14157 Y23.64612
G01 X-128.27581 Y23.72677
G01 X-128.37177 Y23.81501
G01 X-128.52067 Y23.83403
G01 X-128.60177 Y23.88823
G01 X-128.65595 Y23.96934
G01 X-128.67500 Y24.06502
G01 X-128.67500 Y26.26501
G01 X-128.65595 Y26.36070
G01 X-128.56387 Y26.47289
G01 X-128.42499 Y26.51500
G01 X-126.69568 Y26.51500
G01 X-120.67499 Y32.53569
G01 X-120.67019 Y33.31379
G01 X-120.60176 Y33.44178
G01 X-120.47377 Y33.51021
G01 X-118.22498 Y33.51501
G01 X-118.12932 Y33.49599
G01 X-118.04822 Y33.44178
G01 X-117.99402 Y33.36068
G01 X-117.97499 Y33.26500
G01 X-117.97499 Y31.53569
G01 X-113.06845 Y26.62912
G01 X-113.02065 Y26.65597
G01 X-112.92499 Y26.67502
G01 X-111.53566 Y26.67502
G01 X-105.51533 Y32.69535
G01 X-105.38063 Y32.80122
G01 X-105.17499 Y32.88860
G01 X-105.17019 Y33.31379
G01 X-105.13286 Y33.40391
G01 X-105.06387 Y33.47287
G01 X-104.92498 Y33.51501
G01 X-102.72499 Y33.51501
G01 X-102.62930 Y33.49599
G01 X-102.51711 Y33.40391
G01 X-102.47500 Y33.26500
G01 X-102.47500 Y31.06500
G01 X-102.49402 Y30.96935
G01 X-102.54820 Y30.88825
G01 X-102.67622 Y30.81982
G01 X-103.54497 Y30.81502
G01 X-103.54497 Y23.23566
G01 X-97.88476 Y17.57547
G01 X-97.68197 Y17.52675
G01 X-97.49099 Y17.44174
G01 X-97.23775 Y17.25774
G01 X-97.08141 Y17.08208
G01 X-96.94136 Y16.83130
G01 X-96.86998 Y16.60725
G01 X-96.84405 Y16.32119
G04 P0 ( dwell for no time -- G64 should not smooth over this point )
G00 Z2.00000 ( retract )

G00 X-73.42543 Y23.52982 ( rapid move to begin. )
G01 F20.00000
G01 Z-0.10000
G04 P0 ( dwell for no time -- G64 should not smooth over this point )
G01 F40.00000
G01 X-73.42543 Y23.52982
G01 X-73.45136 Y23.29606
G01 X-73.54399 Y23.02420
G01 X-73.66279 Y22.82121
G01 X-73.85799 Y22.61054
G01 X-74.04905 Y22.47340
G01 X-74.31305 Y22.36035
G01 X-74.54338 Y22.31280
G01 X-74.80472 Y22.31280
G01 X-75.03505 Y22.36035
G01 X-75.29906 Y22.47340
G01 X-75.49014 Y22.61054
G01 X-75.67297 Y22.80594
G01 X-76.95592 Y22.80594
G01 X-77.12603 Y22.82631
G01 X-77.26512 Y22.87353
G01 X-77.39230 Y22.94696
G01 X-77.48625 Y23.02563
G01 X-78.43565 Y23.97500
G01 X-79.92498 Y23.97500
G01 X-80.06387 Y24.01714
G01 X-80.13285 Y24.08613
G01 X-80.17019 Y24.17625
G01 X-80.17499 Y24.66441
G01 X-80.35531 Y24.79468
G01 X-86.37564 Y30.81502
G01 X-87.27432 Y30.81502
G01 X-93.50933 Y24.58000
G01 X-92.24883 Y23.31953
G01 X-92.15432 Y23.31816
G01 X-91.92399 Y23.27061
G01 X-91.63804 Y23.14330
G01 X-91.46890 Y23.02042
G01 X-91.29019 Y22.83007
G01 X-91.13367 Y22.55900
G01 X-91.06230 Y22.33490
G01 X-91.03636 Y22.04887
G01 X-91.06230 Y21.81511
G01 X-91.15493 Y21.54328
G01 X-91.27373 Y21.34028
G01 X-91.46890 Y21.12962
G01 X-91.65998 Y20.99248
G01 X-91.87428 Y20.89558
G01 X-92.15432 Y20.83185
G01 X-92.44149 Y20.83594
G01 X-92.64599 Y20.87943
G01 X-92.88668 Y20.98060
G01 X-93.13992 Y21.16459
G01 X-93.29625 Y21.34028
G01 X-93.41505 Y21.54328
G01 X-93.50768 Y21.81511
G01 X-93.53362 Y22.10114
G01 X-93.50768 Y22.33490
G01 X-93.47880 Y22.42817
G01 X-95.02566 Y23.97500
G01 X-96.42500 Y23.97500
G01 X-96.52066 Y23.99405
G01 X-96.60176 Y24.04823
G01 X-96.65596 Y24.12933
G01 X-96.67499 Y24.22501
G01 X-96.67019 Y26.47378
G01 X-96.63285 Y26.56390
G01 X-96.56389 Y26.63288
G01 X-96.42500 Y26.67502
G01 X-94.22498 Y26.67502
G01 X-94.08609 Y26.63288
G01 X-94.01713 Y26.56390
G01 X-93.97979 Y26.47378
G01 X-93.97499 Y26.23568
G01 X-88.17498 Y32.03569
G01 X-88.17498 Y33.26500
G01 X-88.15595 Y33.36068
G01 X-88.10177 Y33.44178
G01 X-88.02065 Y33.49599
G01 X-87.92499 Y33.51501
G01 X-85.67623 Y33.51021
G01 X-85.54821 Y33.44178
G01 X-85.47978 Y33.31379
G01 X-85.47498 Y32.03567
G01 X-80.06844 Y26.62912
G01 X-80.02066 Y26.65597
G01 X-79.92498 Y26.67502
G01 X-77.72499 Y26.67502
G01 X-77.62930 Y26.65597
G01 X-77.54820 Y26.60179
G01 X-77.47980 Y26.47378
G01 X-77.47500 Y25.13568
G01 X-76.64526 Y24.30594
G01 X-75.67297 Y24.30594
G01 X-75.49014 Y24.50134
G01 X-75.29906 Y24.63847
G01 X-75.08476 Y24.73540
G01 X-74.77859 Y24.80048
G01 X-74.54338 Y24.79910
G01 X-74.31305 Y24.75153
G01 X-74.02710 Y24.62423
G01 X-73.81913 Y24.46636
G01 X-73.66279 Y24.29067
G01 X-73.54399 Y24.08768
G01 X-73.45814 Y23.84112
G01 X-73.42543 Y23.52982
G04 P0 ( dwell for no time -- G64 should not smooth over this point )
G00 Z2.00000 ( retract )

G00 X-50.79984 Y16.41898 ( rapid move to begin. )
G01 F20.00000
G01 Z-0.10000
G04 P0 ( dwell for no time -- G64 should not smooth over this point )
G01 F40.00000
G01 X-50.79984 Y16.41898
G01 X-50.82580 Y16.18523
G01 X-50.89718 Y15.96112
G01 X-51.03721 Y15.71040
G01 X-51.19357 Y15.53471
G01 X-51.44681 Y15.35071
G01 X-51.68750 Y15.24957
G01 X-51.91782 Y15.20197
G01 X-52.17914 Y15.20197
G01 X-52.45917 Y15.26570
G01 X-52.67347 Y15.36260
G01 X-52.86456 Y15.49976
G01 X-53.04739 Y15.69513
G01 X-54.46961 Y15.69633
G01 X-54.61523 Y15.71553
G01 X-54.84073 Y15.80890
G01 X-54.97542 Y15.91479
G01 X-62.87564 Y23.81501
G01 X-63.92499 Y23.81501
G01 X-64.02067 Y23.83403
G01 X-64.10177 Y23.88823
G01 X-64.15595 Y23.96934
G01 X-64.17500 Y24.06502
G01 X-64.17500 Y25.11434
G01 X-67.33669 Y28.27606
G01 X-67.31137 Y28.04616
G01 X-67.33321 Y27.78599
G01 X-67.42993 Y27.48828
G01 X-67.54870 Y27.28531
G01 X-67.70507 Y27.10959
G01 X-67.93499 Y26.93750
G01 X-68.19900 Y26.82442
G01 X-68.42932 Y26.77688
G01 X-68.69064 Y26.77688
G01 X-68.97070 Y26.84058
G01 X-69.18500 Y26.93750
G01 X-69.37606 Y27.07464
G01 X-69.57126 Y27.28531
G01 X-69.71129 Y27.53603
G01 X-69.78677 Y27.78599
G01 X-69.80862 Y28.04616
G01 X-69.78677 Y28.25406
G01 X-69.69005 Y28.55175
G01 X-69.55480 Y28.77509
G01 X-69.37606 Y28.96542
G01 X-69.18500 Y29.10255
G01 X-69.02000 Y29.17753
G01 X-69.02000 Y29.79935
G01 X-70.03564 Y30.81502
G01 X-71.42500 Y30.81502
G01 X-71.52065 Y30.83404
G01 X-71.63285 Y30.92612
G01 X-71.67499 Y31.06500
G01 X-71.67499 Y33.26500
G01 X-71.63285 Y33.40391
G01 X-71.52065 Y33.49599
G01 X-71.42500 Y33.51501
G01 X-69.22498 Y33.51501
G01 X-69.08609 Y33.47287
G01 X-68.99402 Y33.36068
G01 X-68.97499 Y33.26500
G01 X-68.97499 Y32.03567
G01 X-63.45433 Y26.51500
G01 X-62.19565 Y26.51500
G01 X-56.17499 Y32.53569
G01 X-56.17019 Y33.31379
G01 X-56.13285 Y33.40391
G01 X-56.06389 Y33.47287
G01 X-55.92498 Y33.51501
G01 X-53.72498 Y33.51501
G01 X-53.58610 Y33.47287
G01 X-53.51711 Y33.40391
G01 X-53.47500 Y33.26500
G01 X-53.47500 Y31.06500
G01 X-53.49402 Y30.96935
G01 X-53.54820 Y30.88825
G01 X-53.62933 Y30.83404
G01 X-53.72498 Y30.81502
G01 X-55.77433 Y30.81502
G01 X-61.47498 Y25.11434
G01 X-61.47498 Y24.53566
G01 X-54.13443 Y17.19513
G01 X-53.04739 Y17.19513
G01 X-52.86456 Y17.39053
G01 X-52.67347 Y17.52769
G01 X-52.45917 Y17.62457
G01 X-52.15300 Y17.68964
G01 X-51.91782 Y17.68830
G01 X-51.68750 Y17.64072
G01 X-51.40154 Y17.51339
G01 X-51.19357 Y17.35556
G01 X-51.03721 Y17.17989
G01 X-50.91844 Y16.97687
G01 X-50.83256 Y16.73029
G01 X-50.79984 Y16.41898
G04 P0 ( dwell for no time -- G64 should not smooth over this point )
G00 Z2.00000 ( retract )

G00 X-27.73636 Y12.27889 ( rapid move to begin. )
G01 F20.00000
G01 Z-0.10000
G04 P0 ( dwell for no time -- G64 should not smooth over this point )
G01 F40.00000
G01 X-27.73636 Y12.27889
G01 X-27.75902 Y12.07632
G01 X-27.83009 Y11.85760
G01 X-27.93083 Y11.68039
G01 X-28.08043 Y11.50606
G01 X-28.26303 Y11.36664
G01 X-28.47063 Y11.26822
G01 X-28.74614 Y11.20967
G01 X-28.97581 Y11.21513
G01 X-29.14962 Y11.25209
G01 X-29.41845 Y11.37500
G01 X-58.01050 Y11.37500
G01 X-58.18060 Y11.39537
G01 X-58.40613 Y11.48879
G01 X-58.54082 Y11.59466
G01 X-79.31530 Y32.36917
G01 X-79.39397 Y32.46312
G01 X-79.48617 Y32.63559
G01 X-79.53380 Y32.87498
G01 X-79.53499 Y34.33962
G01 X-79.74683 Y34.50028
G01 X-79.90070 Y34.67117
G01 X-80.04639 Y34.91260
G01 X-80.14548 Y35.20434
G01 X-80.17362 Y35.45887
G01 X-80.14548 Y35.76568
G01 X-80.04639 Y36.05743
G01 X-79.90070 Y36.29885
G01 X-79.74683 Y36.46974
G01 X-79.53499 Y36.63040
G01 X-79.53499 Y39.84251
G01 X-79.60812 Y39.90238
G01 X-79.77207 Y40.09265
G01 X-79.88353 Y40.28841
G01 X-79.96120 Y40.52750
G01 X-79.98612 Y40.89864
G01 X-79.96120 Y41.12252
G01 X-79.87164 Y41.38492
G01 X-79.77207 Y41.55739
G01 X-79.60812 Y41.74764
G01 X-79.38625 Y41.91390
G01 X-79.15658 Y42.01616
G01 X-78.93654 Y42.06432
G01 X-78.63344 Y42.06432
G01 X-78.41340 Y42.01616
G01 X-78.20705 Y41.92579
G01 X-77.96187 Y41.74764
G01 X-77.79788 Y41.55739
G01 X-77.69834 Y41.38492
G01 X-77.60876 Y41.12252
G01 X-77.58386 Y40.75137
G01 X-77.60876 Y40.52750
G01 X-77.67708 Y40.31284
G01 X-77.82862 Y40.05036
G01 X-78.03499 Y39.84251
G01 X-78.03499 Y36.57096
G01 X-77.92255 Y36.48905
G01 X-77.74929 Y36.29885
G01 X-77.60357 Y36.05743
G01 X-77.50449 Y35.76568
G01 X-77.47634 Y35.45887
G01 X-77.50449 Y35.20434
G01 X-77.60357 Y34.91260
G01 X-77.74929 Y34.67117
G01 X-77.92255 Y34.48097
G01 X-78.03499 Y34.39906
G01 X-78.03499 Y33.21016
G01 X-57.69983 Y12.87500
G01 X-29.77070 Y12.87500
G01 X-29.70844 Y12.97192
G01 X-29.58955 Y13.10398
G01 X-29.36168 Y13.26951
G01 X-29.14962 Y13.35795
G01 X-28.92384 Y13.40035
G01 X-28.74614 Y13.40035
G01 X-28.47063 Y13.34180
G01 X-28.26303 Y13.24340
G01 X-28.08043 Y13.10398
G01 X-27.93083 Y12.92963
G01 X-27.82072 Y12.72798
G01 X-27.75902 Y12.53372
G01 X-27.73636 Y12.27889
G04 P0 ( dwell for no time -- G64 should not smooth over this point )
G00 Z2.00000 ( retract )

G00 X-27.73499 Y13.99504 ( rapid move to begin. )
G01 F20.00000
G01 Z-0.10000
G04 P0 ( dwell for no time -- G64 should not smooth over this point )
G01 F40.00000
G01 X-27.73499 Y13.99504
G01 X-27.73979 Y15.74378
G01 X-27.77713 Y15.83389
G01 X-27.84609 Y15.90291
G01 X-27.98498 Y15.94505
G01 X-29.73377 Y15.94022
G01 X-29.82389 Y15.90291
G01 X-29.89285 Y15.83389
G01 X-29.93019 Y15.74378
G01 X-29.93499 Y15.58503
G01 X-32.91873 Y15.58500
G01 X-33.08883 Y15.56463
G01 X-33.31436 Y15.47123
G01 X-33.43087 Y15.38183
G01 X-34.33937 Y14.47505
G01 X-57.03709 Y14.47505
G01 X-71.77501 Y29.21294
G01 X-71.77501 Y39.81434
G01 X-70.58339 Y41.00593
G01 X-70.43996 Y40.98104
G01 X-70.21001 Y40.98104
G01 X-69.93308 Y41.03430
G01 X-69.65000 Y41.15587
G01 X-69.44199 Y41.30529
G01 X-69.23283 Y41.53151
G01 X-69.10359 Y41.75261
G01 X-69.00448 Y42.04433
G01 X-68.97636 Y42.29889
G01 X-69.00448 Y42.60570
G01 X-69.10359 Y42.89742
G01 X-69.24929 Y43.13887
G01 X-69.40316 Y43.30976
G01 X-69.61497 Y43.47042
G01 X-69.61499 Y44.84250
G01 X-69.54184 Y44.90239
G01 X-69.37789 Y45.09264
G01 X-69.25708 Y45.31283
G01 X-69.18467 Y45.55334
G01 X-69.16249 Y45.77752
G01 X-69.18467 Y46.09667
G01 X-69.27832 Y46.38494
G01 X-69.37789 Y46.55738
G01 X-69.54184 Y46.74765
G01 X-69.74179 Y46.89964
G01 X-69.99340 Y47.01615
G01 X-70.26541 Y47.06980
G01 X-70.51652 Y47.06434
G01 X-70.71131 Y47.02294
G01 X-70.94293 Y46.92578
G01 X-71.14928 Y46.78260
G01 X-71.33783 Y46.57932
G01 X-71.45164 Y46.38494
G01 X-71.53445 Y46.14780
G01 X-71.56612 Y45.89866
G01 X-71.56612 Y45.75139
G01 X-71.54120 Y45.52751
G01 X-71.46353 Y45.28842
G01 X-71.32137 Y45.05037
G01 X-71.11499 Y44.84250
G01 X-71.11497 Y43.41098
G01 X-71.22744 Y43.32904
G01 X-71.41715 Y43.11852
G01 X-71.56764 Y42.84966
G01 X-71.64550 Y42.60570
G01 X-71.67361 Y42.35114
G01 X-71.64834 Y42.06232
G01 X-73.07178 Y40.63717
G01 X-73.20742 Y40.43420
G01 X-73.26419 Y40.24705
G01 X-73.27498 Y40.12501
G01 X-73.27498 Y28.90225
G01 X-73.26419 Y28.78020
G01 X-73.22616 Y28.63834
G01 X-73.16122 Y28.50662
G01 X-73.05532 Y28.37192
G01 X-57.87806 Y13.19468
G01 X-57.78413 Y13.11602
G01 X-57.61167 Y13.02384
G01 X-57.46978 Y12.98582
G01 X-57.34773 Y12.97502
G01 X-34.02871 Y12.97502
G01 X-33.90666 Y12.98582
G01 X-33.76480 Y13.02384
G01 X-33.59231 Y13.11602
G01 X-32.60806 Y14.08500
G01 X-29.93499 Y14.08500
G01 X-29.93019 Y13.94624
G01 X-29.89285 Y13.85612
G01 X-29.82389 Y13.78716
G01 X-29.68498 Y13.74505
G01 X-27.93621 Y13.74982
G01 X-27.80822 Y13.81823
G01 X-27.75402 Y13.89933
G01 X-27.73499 Y13.99504
G04 P0 ( dwell for no time -- G64 should not smooth over this point )
G00 Z2.00000 ( retract )

G00 X-25.19636 Y12.27889 ( rapid move to begin. )
G01 F20.00000
G01 Z-0.10000
G04 P0 ( dwell for no time -- G64 should not smooth over this point )
G01 F40.00000
G01 X-25.19636 Y12.27889
G01 X-25.21902 Y12.07632
G01 X-25.29009 Y11.85760
G01 X-25.39083 Y11.68039
G01 X-25.54043 Y11.50606
G01 X-25.72303 Y11.36664
G01 X-25.92067 Y11.27266
G01 X-27.36865 Y9.82469
G01 X-27.46260 Y9.74602
G01 X-27.63507 Y9.65385
G01 X-27.87449 Y9.60622
G01 X-58.50326 Y9.60500
G01 X-58.67336 Y9.62537
G01 X-58.89889 Y9.71879
G01 X-59.03358 Y9.82469
G01 X-87.35532 Y38.14642
G01 X-87.43398 Y38.24035
G01 X-87.52616 Y38.41282
G01 X-87.56418 Y38.55470
G01 X-87.57498 Y38.67675
G01 X-87.57498 Y41.20867
G01 X-87.74681 Y41.34027
G01 X-87.90068 Y41.51116
G01 X-88.04640 Y41.75261
G01 X-88.14549 Y42.04433
G01 X-88.17361 Y42.29889
G01 X-88.14549 Y42.60570
G01 X-88.04640 Y42.89742
G01 X-87.90068 Y43.13887
G01 X-87.72743 Y43.32904
G01 X-87.61498 Y43.41098
G01 X-87.61498 Y44.84250
G01 X-87.68811 Y44.90239
G01 X-87.85209 Y45.09264
G01 X-87.96352 Y45.28842
G01 X-88.04531 Y45.55334
G01 X-88.06748 Y45.87252
G01 X-88.04531 Y46.09667
G01 X-87.95164 Y46.38494
G01 X-87.83782 Y46.57932
G01 X-87.68811 Y46.74765
G01 X-87.46624 Y46.91392
G01 X-87.23657 Y47.01615
G01 X-87.01653 Y47.06434
G01 X-86.71344 Y47.06434
G01 X-86.49340 Y47.01615
G01 X-86.28705 Y46.92578
G01 X-86.04186 Y46.74765
G01 X-85.90861 Y46.59967
G01 X-85.77833 Y46.38494
G01 X-85.68877 Y46.12253
G01 X-85.66386 Y45.75139
G01 X-85.68877 Y45.52751
G01 X-85.75708 Y45.31283
G01 X-85.89215 Y45.07069
G01 X-86.04186 Y44.90239
G01 X-86.11499 Y44.84250
G01 X-86.11499 Y43.47042
G01 X-85.90315 Y43.30976
G01 X-85.74928 Y43.13887
G01 X-85.60358 Y42.89742
G01 X-85.50450 Y42.60570
G01 X-85.47635 Y42.29889
G01 X-85.50450 Y42.04433
G01 X-85.60358 Y41.75261
G01 X-85.74928 Y41.51116
G01 X-85.90315 Y41.34027
G01 X-86.07498 Y41.20867
G01 X-86.07498 Y38.98739
G01 X-58.19261 Y11.10500
G01 X-28.20967 Y11.10500
G01 X-27.33951 Y11.97515
G01 X-27.37096 Y12.07632
G01 X-27.39362 Y12.27889
G01 X-27.37096 Y12.53372
G01 X-27.29989 Y12.75242
G01 X-27.16844 Y12.97192
G01 X-27.01069 Y13.13893
G01 X-26.82168 Y13.26951
G01 X-26.63492 Y13.35117
G01 X-26.38384 Y13.40035
G01 X-26.15417 Y13.39489
G01 X-25.95506 Y13.35117
G01 X-25.72303 Y13.24340
G01 X-25.55895 Y13.12247
G01 X-25.39083 Y12.92963
G01 X-25.28072 Y12.72798
G01 X-25.21902 Y12.53372
G01 X-25.19636 Y12.27889
G04 P0 ( dwell for no time -- G64 should not smooth over this point )
G00 Z2.00000 ( retract )

G00 X-25.19636 Y14.81889 ( rapid move to begin. )
G01 F20.00000
G01 Z-0.10000
G04 P0 ( dwell for no time -- G64 should not smooth over this point )
G01 F40.00000
G01 X-25.19636 Y14.81889
G01 X-25.21902 Y15.07372
G01 X-25.28072 Y15.26798
G01 X-25.39083 Y15.46963
G01 X-25.55671 Y15.66023
G01 X-25.57536 Y15.80065
G01 X-25.62258 Y15.93971
G01 X-25.75819 Y16.14268
G01 X-27.05729 Y17.44182
G01 X-27.17383 Y17.53122
G01 X-27.30553 Y17.59617
G01 X-27.54495 Y17.64380
G01 X-33.12149 Y17.64502
G01 X-33.24352 Y17.63420
G01 X-33.43069 Y17.57740
G01 X-33.63361 Y17.44182
G01 X-34.80214 Y16.27499
G01 X-47.84783 Y16.27499
G01 X-52.47502 Y20.90219
G01 X-52.47502 Y28.31985
G01 X-52.09466 Y28.70019
G01 X-51.98877 Y28.83488
G01 X-51.89537 Y29.06041
G01 X-51.87497 Y29.23054
G01 X-51.87497 Y34.14501
G01 X-51.89537 Y34.31514
G01 X-51.98877 Y34.54064
G01 X-52.09466 Y34.67534
G01 X-53.29283 Y35.87183
G01 X-53.49580 Y36.00744
G01 X-53.68295 Y36.06421
G01 X-53.80499 Y36.07500
G01 X-61.70612 Y36.07500
G01 X-61.90315 Y36.30975
G01 X-62.03497 Y36.41097
G01 X-62.03497 Y39.84251
G01 X-61.96185 Y39.90238
G01 X-61.79789 Y40.09265
G01 X-61.67706 Y40.31284
G01 X-61.60876 Y40.52750
G01 X-61.58384 Y40.89864
G01 X-61.60876 Y41.12252
G01 X-61.67706 Y41.33717
G01 X-61.79789 Y41.55739
G01 X-62.00068 Y41.78261
G01 X-62.18374 Y41.91390
G01 X-62.38897 Y42.00679
G01 X-62.63345 Y42.06432
G01 X-62.88455 Y42.06978
G01 X-63.18102 Y42.00679
G01 X-63.38623 Y41.91390
G01 X-63.56929 Y41.78261
G01 X-63.75783 Y41.57933
G01 X-63.87165 Y41.38492
G01 X-63.95443 Y41.14781
G01 X-63.98750 Y40.77751
G01 X-63.96121 Y40.52750
G01 X-63.88354 Y40.28841
G01 X-63.74137 Y40.05036
G01 X-63.53500 Y39.84251
G01 X-63.53500 Y36.47040
G01 X-63.74681 Y36.30975
G01 X-63.90068 Y36.13886
G01 X-64.04640 Y35.89743
G01 X-64.14549 Y35.60569
G01 X-64.17363 Y35.29888
G01 X-64.14549 Y35.04432
G01 X-64.04640 Y34.75260
G01 X-63.91716 Y34.53150
G01 X-63.70797 Y34.30531
G01 X-63.49999 Y34.15588
G01 X-63.24216 Y34.04110
G01 X-62.99194 Y33.98651
G01 X-62.71000 Y33.98103
G01 X-62.40782 Y34.04110
G01 X-62.14999 Y34.15588
G01 X-61.90315 Y34.34026
G01 X-61.70612 Y34.57501
G01 X-54.11563 Y34.57501
G01 X-53.37500 Y33.83437
G01 X-53.37500 Y29.54118
G01 X-53.75534 Y29.16084
G01 X-53.86123 Y29.02615
G01 X-53.95465 Y28.80062
G01 X-53.97502 Y28.63052
G01 X-53.97502 Y20.59152
G01 X-53.95465 Y20.42139
G01 X-53.86123 Y20.19589
G01 X-53.75534 Y20.06119
G01 X-48.68882 Y14.99465
G01 X-48.59487 Y14.91599
G01 X-48.42240 Y14.82381
G01 X-48.28052 Y14.78579
G01 X-48.15847 Y14.77499
G01 X-34.46698 Y14.77621
G01 X-34.32139 Y14.79539
G01 X-34.18230 Y14.84256
G01 X-33.97933 Y14.97819
G01 X-32.81080 Y16.14502
G01 X-27.88010 Y16.14502
G01 X-27.20121 Y15.46608
G01 X-27.29989 Y15.29242
G01 X-27.37096 Y15.07372
G01 X-27.39362 Y14.87113
G01 X-27.37096 Y14.61632
G01 X-27.28800 Y14.37431
G01 X-27.18490 Y14.19844
G01 X-27.01069 Y14.01109
G01 X-26.82168 Y13.88051
G01 X-26.63492 Y13.79885
G01 X-26.38384 Y13.74970
G01 X-26.15417 Y13.75513
G01 X-25.95506 Y13.79885
G01 X-25.76830 Y13.88051
G01 X-25.57927 Y14.01109
G01 X-25.39083 Y14.22039
G01 X-25.29009 Y14.39760
G01 X-25.22580 Y14.59102
G01 X-25.19636 Y14.81889
G04 P0 ( dwell for no time -- G64 should not smooth over this point )
G00 Z2.00000 ( retract )

G00 X-22.65636 Y12.27889 ( rapid move to begin. )
G01 F20.00000
G01 Z-0.10000
G04 P0 ( dwell for no time -- G64 should not smooth over this point )
G01 F40.00000
G01 X-22.65636 Y12.27889
G01 X-22.67902 Y12.07632
G01 X-22.75009 Y11.85760
G01 X-22.85083 Y11.68039
G01 X-23.00043 Y11.50606
G01 X-23.18303 Y11.36664
G01 X-23.38067 Y11.27266
G01 X-26.44686 Y8.20821
G01 X-26.64980 Y8.07257
G01 X-26.78889 Y8.02538
G01 X-26.93449 Y8.00620
G01 X-83.00499 Y8.00501
G01 X-83.12703 Y8.01580
G01 X-83.26889 Y8.05382
G01 X-83.40062 Y8.11880
G01 X-83.53531 Y8.22466
G01 X-97.83531 Y22.52469
G01 X-97.91397 Y22.61864
G01 X-97.98806 Y22.74742
G01 X-98.13399 Y22.90863
G01 X-98.22616 Y23.08110
G01 X-98.26419 Y23.22296
G01 X-98.27498 Y23.34500
G01 X-98.27498 Y33.12502
G01 X-98.26419 Y33.24707
G01 X-98.20742 Y33.43422
G01 X-98.07178 Y33.63716
G01 X-96.61202 Y35.09868
G01 X-96.64959 Y35.23017
G01 X-96.67361 Y35.51115
G01 X-96.64550 Y35.76568
G01 X-96.56765 Y36.00967
G01 X-96.40069 Y36.29885
G01 X-96.24682 Y36.46974
G01 X-96.03498 Y36.63042
G01 X-96.03498 Y39.84251
G01 X-96.10811 Y39.90238
G01 X-96.27209 Y40.09265
G01 X-96.38352 Y40.28841
G01 X-96.46122 Y40.52750
G01 X-96.48611 Y40.89864
G01 X-96.46122 Y41.12252
G01 X-96.39289 Y41.33717
G01 X-96.24136 Y41.59965
G01 X-96.06927 Y41.78261
G01 X-95.90819 Y41.89965
G01 X-95.65657 Y42.01616
G01 X-95.38454 Y42.06978
G01 X-95.13343 Y42.06432
G01 X-94.93867 Y42.02292
G01 X-94.68373 Y41.91390
G01 X-94.50070 Y41.78261
G01 X-94.32861 Y41.59965
G01 X-94.18645 Y41.36161
G01 X-94.10877 Y41.12252
G01 X-94.08386 Y40.89864
G01 X-94.10877 Y40.52750
G01 X-94.17707 Y40.31284
G01 X-94.29790 Y40.09265
G01 X-94.46186 Y39.90238
G01 X-94.53498 Y39.84251
G01 X-94.53498 Y36.57096
G01 X-94.42254 Y36.48905
G01 X-94.24929 Y36.29885
G01 X-94.10359 Y36.05743
G01 X-94.00448 Y35.76568
G01 X-93.97636 Y35.45887
G01 X-94.00448 Y35.20434
G01 X-94.10359 Y34.91260
G01 X-94.23283 Y34.69152
G01 X-94.40316 Y34.50028
G01 X-94.65000 Y34.31587
G01 X-94.90781 Y34.20109
G01 X-95.15802 Y34.14651
G01 X-95.44751 Y34.14183
G01 X-96.77501 Y32.81433
G01 X-96.77501 Y23.65567
G01 X-96.69599 Y23.56139
G01 X-96.62190 Y23.43258
G01 X-82.69432 Y9.50500
G01 X-27.26966 Y9.50500
G01 X-24.79951 Y11.97515
G01 X-24.83505 Y12.10215
G01 X-24.85362 Y12.33113
G01 X-24.83096 Y12.53372
G01 X-24.76926 Y12.72798
G01 X-24.62844 Y12.97192
G01 X-24.50955 Y13.10398
G01 X-24.32692 Y13.24340
G01 X-24.06962 Y13.35795
G01 X-23.84384 Y13.40035
G01 X-23.66614 Y13.40035
G01 X-23.41506 Y13.35117
G01 X-23.18303 Y13.24340
G01 X-23.01895 Y13.12247
G01 X-22.88153 Y12.97192
G01 X-22.76198 Y12.77573
G01 X-22.67902 Y12.53372
G01 X-22.65636 Y12.27889
G04 P0 ( dwell for no time -- G64 should not smooth over this point )
G00 Z2.00000 ( retract )

G00 X-22.65636 Y14.81889 ( rapid move to begin. )
G01 F20.00000
G01 Z-0.10000
G04 P0 ( dwell for no time -- G64 should not smooth over this point )
G01 F40.00000
G01 X-22.65636 Y14.81889
G01 X-22.67902 Y15.07372
G01 X-22.76198 Y15.31576
G01 X-22.88153 Y15.51192
G01 X-23.05499 Y15.69036
G01 X-23.05618 Y16.68505
G01 X-23.10381 Y16.92444
G01 X-23.16878 Y17.05617
G01 X-23.27465 Y17.19086
G01 X-25.10914 Y19.02533
G01 X-25.20307 Y19.10399
G01 X-25.33027 Y19.17742
G01 X-25.51742 Y19.23419
G01 X-25.63947 Y19.24501
G01 X-33.78420 Y19.24501
G01 X-33.90628 Y19.23419
G01 X-34.09342 Y19.17742
G01 X-34.29640 Y19.04181
G01 X-35.46490 Y17.87501
G01 X-47.18507 Y17.87501
G01 X-50.87500 Y21.56492
G01 X-50.87500 Y27.65711
G01 X-49.98603 Y28.56138
G01 X-49.89382 Y28.73384
G01 X-49.84620 Y28.97324
G01 X-49.84501 Y37.16253
G01 X-49.86538 Y37.33266
G01 X-49.95880 Y37.55816
G01 X-50.06469 Y37.69286
G01 X-53.81261 Y41.44083
G01 X-53.71856 Y41.55345
G01 X-53.58231 Y41.80034
G01 X-53.50449 Y42.04433
G01 X-53.47637 Y42.35114
G01 X-53.50449 Y42.60570
G01 X-53.60357 Y42.89742
G01 X-53.74929 Y43.13887
G01 X-53.90316 Y43.30976
G01 X-54.11500 Y43.47042
G01 X-54.11500 Y44.84250
G01 X-54.04185 Y44.90239
G01 X-53.89214 Y45.07069
G01 X-53.77832 Y45.26510
G01 X-53.68876 Y45.52751
G01 X-53.66385 Y45.75139
G01 X-53.68876 Y46.12253
G01 X-53.76646 Y46.36162
G01 X-53.87789 Y46.55738
G01 X-54.04185 Y46.74765
G01 X-54.26374 Y46.91392
G01 X-54.49338 Y47.01615
G01 X-54.71345 Y47.06434
G01 X-54.96455 Y47.06980
G01 X-55.23659 Y47.01615
G01 X-55.46623 Y46.91392
G01 X-55.68812 Y46.74765
G01 X-55.83783 Y46.57932
G01 X-55.97291 Y46.33719
G01 X-56.04121 Y46.12253
G01 X-56.06750 Y45.77752
G01 X-56.04121 Y45.52751
G01 X-55.96354 Y45.28842
G01 X-55.82137 Y45.05037
G01 X-55.61500 Y44.84250
G01 X-55.61500 Y43.41095
G01 X-55.72744 Y43.32904
G01 X-55.91716 Y43.11852
G01 X-56.04639 Y42.89742
G01 X-56.13872 Y42.63097
G01 X-56.17362 Y42.29889
G01 X-56.14548 Y42.04433
G01 X-56.06765 Y41.80034
G01 X-55.90070 Y41.51116
G01 X-55.74682 Y41.34027
G01 X-55.54352 Y41.18581
G01 X-55.46120 Y40.99689
G01 X-55.35531 Y40.86219
G01 X-51.34500 Y36.85186
G01 X-51.34500 Y29.30842
G01 X-52.17180 Y28.47992
G01 X-52.30741 Y28.27695
G01 X-52.36418 Y28.08980
