( pcb2gcode 2.0.0 )
( Software-independent Gcode )
( This file uses a mill head of 1.00000mm to drill the 3 hole sizes. )
( Hole sizes: [0.8001 mm] [1.00076 mm] [1.09982 mm] )

G94       (Millimeters per minute feed rate.)
G21       (Units == Millimeters.)
G91.1     (Incremental arc distance mode.)
G90       (Absolute coordinates.)
S15000    (RPM spindle speed.)
G01 F20.00000 (Feedrate)
M3        (Spindle on clockwise.)
G04 P1.00000
G00 Z2.00000

G0 X-127.32448 Y44.82388
G1 Z-2.50000 F10.00000
G0 Z2.00000

G0 X-127.32448 Y57.52388
G1 Z-2.50000 F10.00000
G0 Z2.00000

G0 X-119.32602 Y64.02374
G1 Z-2.50000 F10.00000
G0 Z2.00000

G0 X-111.82540 Y57.52388
G1 Z-2.50000 F10.00000
G0 Z2.00000

G0 X-119.32602 Y51.32374
G1 Z-2.50000 F10.00000
G0 Z2.00000

G0 X-111.82540 Y44.82388
G1 Z-2.50000 F10.00000
G0 Z2.00000

G0 X-103.82440 Y51.32374
G1 Z-2.50000 F10.00000
G0 Z2.00000

G0 X-95.32556 Y44.82388
G1 Z-2.50000 F10.00000
G0 Z2.00000

G0 X-86.82418 Y51.32374
G1 Z-2.50000 F10.00000
G0 Z2.00000

G0 X-78.82572 Y44.82388
G1 Z-2.50000 F10.00000
G0 Z2.00000

G0 X-70.32434 Y50.82590
G1 Z-2.50000 F10.00000
G0 Z2.00000

G0 X-62.82626 Y44.82388
G1 Z-2.50000 F10.00000
G0 Z2.00000

G0 X-54.82526 Y50.82590
G1 Z-2.50000 F10.00000
G0 Z2.00000

G0 X-47.82502 Y44.82388
G1 Z-2.50000 F10.00000
G0 Z2.00000

G0 X-40.32440 Y50.82590
G1 Z-2.50000 F10.00000
G0 Z2.00000

G0 X-32.32594 Y44.82388
G1 Z-2.50000 F10.00000
G0 Z2.00000

G0 X-24.82532 Y50.32552
G1 Z-2.50000 F10.00000
G0 Z2.00000

G0 X-16.82432 Y45.12614
G1 Z-2.50000 F10.00000
G0 Z2.00000

G0 X-8.82586 Y50.62524
G1 Z-2.50000 F10.00000
G0 Z2.00000

G0 X-8.82586 Y63.32524
G1 Z-2.50000 F10.00000
G0 Z2.00000

G0 X-16.82432 Y57.82614
G1 Z-2.50000 F10.00000
G0 Z2.00000

G0 X-24.82532 Y63.02552
G1 Z-2.50000 F10.00000
G0 Z2.00000

G0 X-32.32594 Y57.52388
G1 Z-2.50000 F10.00000
G0 Z2.00000

G0 X-40.32440 Y63.52590
G1 Z-2.50000 F10.00000
G0 Z2.00000

G0 X-47.82502 Y57.52388
G1 Z-2.50000 F10.00000
G0 Z2.00000

G0 X-54.82526 Y63.52590
G1 Z-2.50000 F10.00000
G0 Z2.00000

G0 X-62.82626 Y57.52388
G1 Z-2.50000 F10.00000
G0 Z2.00000

G0 X-70.32434 Y63.52590
G1 Z-2.50000 F10.00000
G0 Z2.00000

G0 X-78.82572 Y57.52388
G1 Z-2.50000 F10.00000
G0 Z2.00000

G0 X-86.82418 Y64.02374
G1 Z-2.50000 F10.00000
G0 Z2.00000

G0 X-95.32556 Y57.52388
G1 Z-2.50000 F10.00000
G0 Z2.00000

G0 X-103.82440 Y64.02374
G1 Z-2.50000 F10.00000
G0 Z2.00000

G0 X-98.09162 Y16.34794
G1 Z-2.50000 F10.00000
G0 Z2.00000

G0 X-92.28518 Y22.07564
G1 Z-2.50000 F10.00000
G0 Z2.00000

G0 X-74.67282 Y23.55646
G1 Z-2.50000 F10.00000
G0 Z2.00000

G0 X-68.55904 Y28.01924
G1 Z-2.50000 F10.00000
G0 Z2.00000

G0 X-52.04904 Y16.44446
G1 Z-2.50000 F10.00000
G0 Z2.00000

G0 X-46.82426 Y21.82418
G1 Z-2.50000 F10.00000
G0 Z2.00000

G0 X-28.83598 Y12.30426
G1 Z-2.50000 F10.00000
G0 Z2.00000

G0 X-26.29598 Y12.30426
G1 Z-2.50000 F10.00000
G0 Z2.00000

G0 X-23.75598 Y12.30426
G1 Z-2.50000 F10.00000
G0 Z2.00000

G0 X-21.21598 Y12.30426
G1 Z-2.50000 F10.00000
G0 Z2.00000

G0 X-18.67598 Y12.30426
G1 Z-2.50000 F10.00000
G0 Z2.00000

G0 X-16.13598 Y12.30426
G1 Z-2.50000 F10.00000
G0 Z2.00000

G0 X-13.59598 Y12.30426
G1 Z-2.50000 F10.00000
G0 Z2.00000

G0 X-10.99502 Y5.58596
G1 Z-2.50000 F10.00000
G0 Z2.00000

G0 X-5.95566 Y5.53516
G1 Z-2.50000 F10.00000
G0 Z2.00000

G0 X-11.05598 Y12.30426
G1 Z-2.50000 F10.00000
G0 Z2.00000

G0 X-8.51598 Y12.30426
G1 Z-2.50000 F10.00000
G0 Z2.00000

G0 X-8.51598 Y14.84426
G1 Z-2.50000 F10.00000
G0 Z2.00000

G0 X-11.05598 Y14.84426
G1 Z-2.50000 F10.00000
G0 Z2.00000

G0 X-13.59598 Y14.84426
G1 Z-2.50000 F10.00000
G0 Z2.00000

G0 X-16.13598 Y14.84426
G1 Z-2.50000 F10.00000
G0 Z2.00000

G0 X-18.67598 Y14.84426
G1 Z-2.50000 F10.00000
G0 Z2.00000

G0 X-21.21598 Y14.84426
G1 Z-2.50000 F10.00000
G0 Z2.00000

G0 X-23.75598 Y14.84426
G1 Z-2.50000 F10.00000
G0 Z2.00000

G0 X-26.29598 Y14.84426
G1 Z-2.50000 F10.00000
G0 Z2.00000

G0 X-28.83598 Y14.84426
G1 Z-2.50000 F10.00000
G0 Z2.00000

G0 X-28.18574 Y22.60396
G1 Z-2.50000 F10.00000
G0 Z2.00000

G0 X-22.44280 Y28.26562
G1 Z-2.50000 F10.00000
G0 Z2.00000

G0 X-11.82560 Y22.82494
G1 Z-2.50000 F10.00000
G0 Z2.00000

G0 X-4.46468 Y15.76882
G1 Z-2.50000 F10.00000
G0 Z2.00000

G0 X-3.82460 Y57.82614
G1 Z-2.50000 F10.00000
G0 Z2.00000

G0 X-6.82434 Y67.07428
G1 Z-2.50000 F10.00000
G0 Z2.00000

G0 X-8.56424 Y72.24572
G1 Z-2.50000 F10.00000
G0 Z2.00000

G0 X-8.56424 Y74.78572
G1 Z-2.50000 F10.00000
G0 Z2.00000

G0 X-11.10424 Y74.78572
G1 Z-2.50000 F10.00000
G0 Z2.00000

G0 X-11.10424 Y72.24572
G1 Z-2.50000 F10.00000
G0 Z2.00000

G0 X-13.64424 Y74.78572
G1 Z-2.50000 F10.00000
G0 Z2.00000

G0 X-16.18424 Y74.78572
G1 Z-2.50000 F10.00000
G0 Z2.00000

G0 X-13.64424 Y72.24572
G1 Z-2.50000 F10.00000
G0 Z2.00000

G0 X-16.18424 Y72.24572
G1 Z-2.50000 F10.00000
G0 Z2.00000

G0 X-18.72424 Y74.78572
G1 Z-2.50000 F10.00000
G0 Z2.00000

G0 X-18.72424 Y72.24572
G1 Z-2.50000 F10.00000
G0 Z2.00000

G0 X-21.26424 Y74.78572
G1 Z-2.50000 F10.00000
G0 Z2.00000

G0 X-21.26424 Y72.24572
G1 Z-2.50000 F10.00000
G0 Z2.00000

G0 X-23.80424 Y74.78572
G1 Z-2.50000 F10.00000
G0 Z2.00000

G0 X-23.80424 Y72.24572
G1 Z-2.50000 F10.00000
G0 Z2.00000

G0 X-26.34424 Y74.78572
G1 Z-2.50000 F10.00000
G0 Z2.00000

G0 X-28.88424 Y74.78572
G1 Z-2.50000 F10.00000
G0 Z2.00000

G0 X-26.34424 Y72.24572
G1 Z-2.50000 F10.00000
G0 Z2.00000

G0 X-28.88424 Y72.24572
G1 Z-2.50000 F10.00000
G0 Z2.00000

G0 X-127.27457 Y25.16428
G1 Z2.50000 F10.00000
G2 X-127.27457 Y25.16428 Z-0.00000 I-0.04991 J0.00000
G2 X-127.27457 Y25.16428 Z-2.50000 I-0.04991 J0.00000
G2 X-127.27457 Y25.16428 I-0.04991 J0.00000
G0 Z2.00000

G0 X-127.27457 Y35.32428
G1 Z2.50000 F10.00000
G2 X-127.27457 Y35.32428 Z-0.00000 I-0.04991 J0.00000
G2 X-127.27457 Y35.32428 Z-2.50000 I-0.04991 J0.00000
G2 X-127.27457 Y35.32428 I-0.04991 J0.00000
G0 Z2.00000

G0 X-129.85521 Y40.82592
G1 Z2.50000 F10.00000
G2 X-129.85521 Y40.82592 Z-0.00000 I-0.04991 J0.00000
G2 X-129.85521 Y40.82592 Z-2.50000 I-0.04991 J0.00000
G2 X-129.85521 Y40.82592 I-0.04991 J0.00000
G0 Z2.00000

G0 X-127.31521 Y40.82592
G1 Z2.50000 F10.00000
G2 X-127.31521 Y40.82592 Z-0.00000 I-0.04991 J0.00000
G2 X-127.31521 Y40.82592 Z-2.50000 I-0.04991 J0.00000
G2 X-127.31521 Y40.82592 I-0.04991 J0.00000
G0 Z2.00000

G0 X-124.77521 Y40.82592
G1 Z2.50000 F10.00000
G2 X-124.77521 Y40.82592 Z-0.00000 I-0.04991 J0.00000
G2 X-124.77521 Y40.82592 Z-2.50000 I-0.04991 J0.00000
G2 X-124.77521 Y40.82592 I-0.04991 J0.00000
G0 Z2.00000

G0 X-121.85421 Y45.82464
G1 Z2.50000 F10.00000
G2 X-121.85421 Y45.82464 Z-0.00000 I-0.04991 J0.00000
G2 X-121.85421 Y45.82464 Z-2.50000 I-0.04991 J0.00000
G2 X-121.85421 Y45.82464 I-0.04991 J0.00000
G0 Z2.00000

G0 X-119.31421 Y45.82464
G1 Z2.50000 F10.00000
G2 X-119.31421 Y45.82464 Z-0.00000 I-0.04991 J0.00000
G2 X-119.31421 Y45.82464 Z-2.50000 I-0.04991 J0.00000
G2 X-119.31421 Y45.82464 I-0.04991 J0.00000
G0 Z2.00000

G0 X-116.77421 Y45.82464
G1 Z2.50000 F10.00000
G2 X-116.77421 Y45.82464 Z-0.00000 I-0.04991 J0.00000
G2 X-116.77421 Y45.82464 Z-2.50000 I-0.04991 J0.00000
G2 X-116.77421 Y45.82464 I-0.04991 J0.00000
G0 Z2.00000

G0 X-119.27611 Y42.32452
G1 Z2.50000 F10.00000
G2 X-119.27611 Y42.32452 Z-0.00000 I-0.04991 J0.00000
G2 X-119.27611 Y42.32452 Z-2.50000 I-0.04991 J0.00000
G2 X-119.27611 Y42.32452 I-0.04991 J0.00000
G0 Z2.00000

G0 X-114.31549 Y40.82592
G1 Z2.50000 F10.00000
G2 X-114.31549 Y40.82592 Z-0.00000 I-0.04991 J0.00000
G2 X-114.31549 Y40.82592 Z-2.50000 I-0.04991 J0.00000
G2 X-114.31549 Y40.82592 I-0.04991 J0.00000
G0 Z2.00000

G0 X-111.77549 Y40.82592
G1 Z2.50000 F10.00000
G2 X-111.77549 Y40.82592 Z-0.00000 I-0.04991 J0.00000
G2 X-111.77549 Y40.82592 Z-2.50000 I-0.04991 J0.00000
G2 X-111.77549 Y40.82592 I-0.04991 J0.00000
G0 Z2.00000

G0 X-109.23549 Y40.82592
G1 Z2.50000 F10.00000
G2 X-109.23549 Y40.82592 Z-0.00000 I-0.04991 J0.00000
G2 X-109.23549 Y40.82592 Z-2.50000 I-0.04991 J0.00000
G2 X-109.23549 Y40.82592 I-0.04991 J0.00000
G0 Z2.00000

G0 X-111.77549 Y35.48430
G1 Z2.50000 F10.00000
G2 X-111.77549 Y35.48430 Z-0.00000 I-0.04991 J0.00000
G2 X-111.77549 Y35.48430 Z-2.50000 I-0.04991 J0.00000
G2 X-111.77549 Y35.48430 I-0.04991 J0.00000
G0 Z2.00000

G0 X-119.27611 Y32.16452
G1 Z2.50000 F10.00000
G2 X-119.27611 Y32.16452 Z-0.00000 I-0.04991 J0.00000
G2 X-119.27611 Y32.16452 Z-2.50000 I-0.04991 J0.00000
G2 X-119.27611 Y32.16452 I-0.04991 J0.00000
G0 Z2.00000

G0 X-111.77549 Y25.32430
G1 Z2.50000 F10.00000
G2 X-111.77549 Y25.32430 Z-0.00000 I-0.04991 J0.00000
G2 X-111.77549 Y25.32430 Z-2.50000 I-0.04991 J0.00000
G2 X-111.77549 Y25.32430 I-0.04991 J0.00000
G0 Z2.00000

G0 X-103.77449 Y32.16452
G1 Z2.50000 F10.00000
G2 X-103.77449 Y32.16452 Z-0.00000 I-0.04991 J0.00000
G2 X-103.77449 Y32.16452 Z-2.50000 I-0.04991 J0.00000
G2 X-103.77449 Y32.16452 I-0.04991 J0.00000
G0 Z2.00000

G0 X-95.27565 Y25.32430
G1 Z2.50000 F10.00000
G2 X-95.27565 Y25.32430 Z-0.00000 I-0.04991 J0.00000
G2 X-95.27565 Y25.32430 Z-2.50000 I-0.04991 J0.00000
G2 X-95.27565 Y25.32430 I-0.04991 J0.00000
G0 Z2.00000

G0 X-86.77427 Y32.16452
G1 Z2.50000 F10.00000
G2 X-86.77427 Y32.16452 Z-0.00000 I-0.04991 J0.00000
G2 X-86.77427 Y32.16452 Z-2.50000 I-0.04991 J0.00000
G2 X-86.77427 Y32.16452 I-0.04991 J0.00000
G0 Z2.00000

G0 X-78.77581 Y25.32430
G1 Z2.50000 F10.00000
G2 X-78.77581 Y25.32430 Z-0.00000 I-0.04991 J0.00000
G2 X-78.77581 Y25.32430 Z-2.50000 I-0.04991 J0.00000
G2 X-78.77581 Y25.32430 I-0.04991 J0.00000
G0 Z2.00000

G0 X-78.77581 Y35.48430
G1 Z2.50000 F10.00000
G2 X-78.77581 Y35.48430 Z-0.00000 I-0.04991 J0.00000
G2 X-78.77581 Y35.48430 Z-2.50000 I-0.04991 J0.00000
G2 X-78.77581 Y35.48430 I-0.04991 J0.00000
G0 Z2.00000

G0 X-70.27443 Y32.16452
G1 Z2.50000 F10.00000
G2 X-70.27443 Y32.16452 Z-0.00000 I-0.04991 J0.00000
G2 X-70.27443 Y32.16452 Z-2.50000 I-0.04991 J0.00000
G2 X-70.27443 Y32.16452 I-0.04991 J0.00000
G0 Z2.00000

G0 X-62.77635 Y25.16428
G1 Z2.50000 F10.00000
G2 X-62.77635 Y25.16428 Z-0.00000 I-0.04991 J0.00000
G2 X-62.77635 Y25.16428 Z-2.50000 I-0.04991 J0.00000
G2 X-62.77635 Y25.16428 I-0.04991 J0.00000
G0 Z2.00000

G0 X-62.77635 Y35.32428
G1 Z2.50000 F10.00000
G2 X-62.77635 Y35.32428 Z-0.00000 I-0.04991 J0.00000
G2 X-62.77635 Y35.32428 Z-2.50000 I-0.04991 J0.00000
G2 X-62.77635 Y35.32428 I-0.04991 J0.00000
G0 Z2.00000

G0 X-54.77535 Y32.16452
G1 Z2.50000 F10.00000
G2 X-54.77535 Y32.16452 Z-0.00000 I-0.04991 J0.00000
G2 X-54.77535 Y32.16452 Z-2.50000 I-0.04991 J0.00000
G2 X-54.77535 Y32.16452 I-0.04991 J0.00000
G0 Z2.00000

G0 X-47.77511 Y25.32430
G1 Z2.50000 F10.00000
G2 X-47.77511 Y25.32430 Z-0.00000 I-0.04991 J0.00000
G2 X-47.77511 Y25.32430 Z-2.50000 I-0.04991 J0.00000
G2 X-47.77511 Y25.32430 I-0.04991 J0.00000
G0 Z2.00000

G0 X-47.77511 Y35.48430
G1 Z2.50000 F10.00000
G2 X-47.77511 Y35.48430 Z-0.00000 I-0.04991 J0.00000
G2 X-47.77511 Y35.48430 Z-2.50000 I-0.04991 J0.00000
G2 X-47.77511 Y35.48430 I-0.04991 J0.00000
G0 Z2.00000

G0 X-40.27449 Y32.16452
G1 Z2.50000 F10.00000
G2 X-40.27449 Y32.16452 Z-0.00000 I-0.04991 J0.00000
G2 X-40.27449 Y32.16452 Z-2.50000 I-0.04991 J0.00000
G2 X-40.27449 Y32.16452 I-0.04991 J0.00000
G0 Z2.00000

G0 X-32.77387 Y25.16428
G1 Z2.50000 F10.00000
G2 X-32.77387 Y25.16428 Z-0.00000 I-0.04991 J0.00000
G2 X-32.77387 Y25.16428 Z-2.50000 I-0.04991 J0.00000
G2 X-32.77387 Y25.16428 I-0.04991 J0.00000
G0 Z2.00000

G0 X-32.77387 Y35.32428
G1 Z2.50000 F10.00000
G2 X-32.77387 Y35.32428 Z-0.00000 I-0.04991 J0.00000
G2 X-32.77387 Y35.32428 Z-2.50000 I-0.04991 J0.00000
G2 X-32.77387 Y35.32428 I-0.04991 J0.00000
G0 Z2.00000

G0 X-24.77541 Y31.82416
G1 Z2.50000 F10.00000
G2 X-24.77541 Y31.82416 Z-0.00000 I-0.04991 J0.00000
G2 X-24.77541 Y31.82416 Z-2.50000 I-0.04991 J0.00000
G2 X-24.77541 Y31.82416 I-0.04991 J0.00000
G0 Z2.00000

G0 X-16.77441 Y25.32430
G1 Z2.50000 F10.00000
G2 X-16.77441 Y25.32430 Z-0.00000 I-0.04991 J0.00000
G2 X-16.77441 Y25.32430 Z-2.50000 I-0.04991 J0.00000
G2 X-16.77441 Y25.32430 I-0.04991 J0.00000
G0 Z2.00000

G0 X-8.77595 Y31.82416
G1 Z2.50000 F10.00000
G2 X-8.77595 Y31.82416 Z-0.00000 I-0.04991 J0.00000
G2 X-8.77595 Y31.82416 Z-2.50000 I-0.04991 J0.00000
G2 X-8.77595 Y31.82416 I-0.04991 J0.00000
G0 Z2.00000

G0 X-16.77441 Y35.48430
G1 Z2.50000 F10.00000
G2 X-16.77441 Y35.48430 Z-0.00000 I-0.04991 J0.00000
G2 X-16.77441 Y35.48430 Z-2.50000 I-0.04991 J0.00000
G2 X-16.77441 Y35.48430 I-0.04991 J0.00000
G0 Z2.00000

G0 X-8.77595 Y41.98416
G1 Z2.50000 F10.00000
G2 X-8.77595 Y41.98416 Z-0.00000 I-0.04991 J0.00000
G2 X-8.77595 Y41.98416 Z-2.50000 I-0.04991 J0.00000
G2 X-8.77595 Y41.98416 I-0.04991 J0.00000
G0 Z2.00000

G0 X-6.27405 Y45.82464
G1 Z2.50000 F10.00000
G2 X-6.27405 Y45.82464 Z-0.00000 I-0.04991 J0.00000
G2 X-6.27405 Y45.82464 Z-2.50000 I-0.04991 J0.00000
G2 X-6.27405 Y45.82464 I-0.04991 J0.00000
G0 Z2.00000

G0 X-8.81405 Y45.82464
G1 Z2.50000 F10.00000
G2 X-8.81405 Y45.82464 Z-0.00000 I-0.04991 J0.00000
G2 X-8.81405 Y45.82464 Z-2.50000 I-0.04991 J0.00000
G2 X-8.81405 Y45.82464 I-0.04991 J0.00000
G0 Z2.00000

G0 X-11.35405 Y45.82464
G1 Z2.50000 F10.00000
G2 X-11.35405 Y45.82464 Z-0.00000 I-0.04991 J0.00000
G2 X-11.35405 Y45.82464 Z-2.50000 I-0.04991 J0.00000
G2 X-11.35405 Y45.82464 I-0.04991 J0.00000
G0 Z2.00000

G0 X-14.19631 Y40.82592
G1 Z2.50000 F10.00000
G2 X-14.19631 Y40.82592 Z-0.00000 I-0.04991 J0.00000
G2 X-14.19631 Y40.82592 Z-2.50000 I-0.04991 J0.00000
G2 X-14.19631 Y40.82592 I-0.04991 J0.00000
G0 Z2.00000

G0 X-16.73631 Y40.82592
G1 Z2.50000 F10.00000
G2 X-16.73631 Y40.82592 Z-0.00000 I-0.04991 J0.00000
G2 X-16.73631 Y40.82592 Z-2.50000 I-0.04991 J0.00000
G2 X-16.73631 Y40.82592 I-0.04991 J0.00000
G0 Z2.00000

G0 X-19.27631 Y40.82592
G1 Z2.50000 F10.00000
G2 X-19.27631 Y40.82592 Z-0.00000 I-0.04991 J0.00000
G2 X-19.27631 Y40.82592 Z-2.50000 I-0.04991 J0.00000
G2 X-19.27631 Y40.82592 I-0.04991 J0.00000
G0 Z2.00000

G0 X-24.77541 Y41.98416
G1 Z2.50000 F10.00000
G2 X-24.77541 Y41.98416 Z-0.00000 I-0.04991 J0.00000
G2 X-24.77541 Y41.98416 Z-2.50000 I-0.04991 J0.00000
G2 X-24.77541 Y41.98416 I-0.04991 J0.00000
G0 Z2.00000

G0 X-22.27605 Y45.82464
G1 Z2.50000 F10.00000
G2 X-22.27605 Y45.82464 Z-0.00000 I-0.04991 J0.00000
G2 X-22.27605 Y45.82464 Z-2.50000 I-0.04991 J0.00000
G2 X-22.27605 Y45.82464 I-0.04991 J0.00000
G0 Z2.00000

G0 X-24.81605 Y45.82464
G1 Z2.50000 F10.00000
G2 X-24.81605 Y45.82464 Z-0.00000 I-0.04991 J0.00000
G2 X-24.81605 Y45.82464 Z-2.50000 I-0.04991 J0.00000
G2 X-24.81605 Y45.82464 I-0.04991 J0.00000
G0 Z2.00000

G0 X-27.35605 Y45.82464
G1 Z2.50000 F10.00000
G2 X-27.35605 Y45.82464 Z-0.00000 I-0.04991 J0.00000
G2 X-27.35605 Y45.82464 Z-2.50000 I-0.04991 J0.00000
G2 X-27.35605 Y45.82464 I-0.04991 J0.00000
G0 Z2.00000

G0 X-30.27451 Y40.82592
G1 Z2.50000 F10.00000
G2 X-30.27451 Y40.82592 Z-0.00000 I-0.04991 J0.00000
G2 X-30.27451 Y40.82592 Z-2.50000 I-0.04991 J0.00000
G2 X-30.27451 Y40.82592 I-0.04991 J0.00000
G0 Z2.00000

G0 X-32.81451 Y40.82592
G1 Z2.50000 F10.00000
G2 X-32.81451 Y40.82592 Z-0.00000 I-0.04991 J0.00000
G2 X-32.81451 Y40.82592 Z-2.50000 I-0.04991 J0.00000
G2 X-32.81451 Y40.82592 I-0.04991 J0.00000
G0 Z2.00000

G0 X-35.35451 Y40.82592
G1 Z2.50000 F10.00000
G2 X-35.35451 Y40.82592 Z-0.00000 I-0.04991 J0.00000
G2 X-35.35451 Y40.82592 Z-2.50000 I-0.04991 J0.00000
G2 X-35.35451 Y40.82592 I-0.04991 J0.00000
G0 Z2.00000

G0 X-37.77513 Y45.82464
G1 Z2.50000 F10.00000
G2 X-37.77513 Y45.82464 Z-0.00000 I-0.04991 J0.00000
G2 X-37.77513 Y45.82464 Z-2.50000 I-0.04991 J0.00000
G2 X-37.77513 Y45.82464 I-0.04991 J0.00000
G0 Z2.00000

G0 X-40.31513 Y45.82464
G1 Z2.50000 F10.00000
G2 X-40.31513 Y45.82464 Z-0.00000 I-0.04991 J0.00000
G2 X-40.31513 Y45.82464 Z-2.50000 I-0.04991 J0.00000
G2 X-40.31513 Y45.82464 I-0.04991 J0.00000
G0 Z2.00000

G0 X-42.85513 Y45.82464
G1 Z2.50000 F10.00000
G2 X-42.85513 Y45.82464 Z-0.00000 I-0.04991 J0.00000
G2 X-42.85513 Y45.82464 Z-2.50000 I-0.04991 J0.00000
G2 X-42.85513 Y45.82464 I-0.04991 J0.00000
G0 Z2.00000

G0 X-40.27449 Y42.32452
G1 Z2.50000 F10.00000
G2 X-40.27449 Y42.32452 Z-0.00000 I-0.04991 J0.00000
G2 X-40.27449 Y42.32452 Z-2.50000 I-0.04991 J0.00000
G2 X-40.27449 Y42.32452 I-0.04991 J0.00000
G0 Z2.00000

G0 X-45.19447 Y40.82592
G1 Z2.50000 F10.00000
G2 X-45.19447 Y40.82592 Z-0.00000 I-0.04991 J0.00000
G2 X-45.19447 Y40.82592 Z-2.50000 I-0.04991 J0.00000
G2 X-45.19447 Y40.82592 I-0.04991 J0.00000
G0 Z2.00000

G0 X-47.73447 Y40.82592
G1 Z2.50000 F10.00000
G2 X-47.73447 Y40.82592 Z-0.00000 I-0.04991 J0.00000
G2 X-47.73447 Y40.82592 Z-2.50000 I-0.04991 J0.00000
G2 X-47.73447 Y40.82592 I-0.04991 J0.00000
G0 Z2.00000

G0 X-50.27447 Y40.82592
G1 Z2.50000 F10.00000
G2 X-50.27447 Y40.82592 Z-0.00000 I-0.04991 J0.00000
G2 X-50.27447 Y40.82592 Z-2.50000 I-0.04991 J0.00000
G2 X-50.27447 Y40.82592 I-0.04991 J0.00000
G0 Z2.00000

G0 X-54.77535 Y42.32452
G1 Z2.50000 F10.00000
G2 X-54.77535 Y42.32452 Z-0.00000 I-0.04991 J0.00000
G2 X-54.77535 Y42.32452 Z-2.50000 I-0.04991 J0.00000
G2 X-54.77535 Y42.32452 I-0.04991 J0.00000
G0 Z2.00000

G0 X-52.27599 Y45.82464
G1 Z2.50000 F10.00000
G2 X-52.27599 Y45.82464 Z-0.00000 I-0.04991 J0.00000
G2 X-52.27599 Y45.82464 Z-2.50000 I-0.04991 J0.00000
G2 X-52.27599 Y45.82464 I-0.04991 J0.00000
G0 Z2.00000

G0 X-54.81599 Y45.82464
G1 Z2.50000 F10.00000
G2 X-54.81599 Y45.82464 Z-0.00000 I-0.04991 J0.00000
G2 X-54.81599 Y45.82464 Z-2.50000 I-0.04991 J0.00000
G2 X-54.81599 Y45.82464 I-0.04991 J0.00000
G0 Z2.00000

G0 X-57.35599 Y45.82464
G1 Z2.50000 F10.00000
G2 X-57.35599 Y45.82464 Z-0.00000 I-0.04991 J0.00000
G2 X-57.35599 Y45.82464 Z-2.50000 I-0.04991 J0.00000
G2 X-57.35599 Y45.82464 I-0.04991 J0.00000
G0 Z2.00000

G0 X-60.19571 Y40.82592
G1 Z2.50000 F10.00000
G2 X-60.19571 Y40.82592 Z-0.00000 I-0.04991 J0.00000
G2 X-60.19571 Y40.82592 Z-2.50000 I-0.04991 J0.00000
G2 X-60.19571 Y40.82592 I-0.04991 J0.00000
G0 Z2.00000

G0 X-62.73571 Y40.82592
G1 Z2.50000 F10.00000
G2 X-62.73571 Y40.82592 Z-0.00000 I-0.04991 J0.00000
G2 X-62.73571 Y40.82592 Z-2.50000 I-0.04991 J0.00000
G2 X-62.73571 Y40.82592 I-0.04991 J0.00000
G0 Z2.00000

G0 X-65.27571 Y40.82592
G1 Z2.50000 F10.00000
G2 X-65.27571 Y40.82592 Z-0.00000 I-0.04991 J0.00000
G2 X-65.27571 Y40.82592 Z-2.50000 I-0.04991 J0.00000
G2 X-65.27571 Y40.82592 I-0.04991 J0.00000
G0 Z2.00000

G0 X-70.27443 Y42.32452
G1 Z2.50000 F10.00000
G2 X-70.27443 Y42.32452 Z-0.00000 I-0.04991 J0.00000
G2 X-70.27443 Y42.32452 Z-2.50000 I-0.04991 J0.00000
G2 X-70.27443 Y42.32452 I-0.04991 J0.00000
G0 Z2.00000

G0 X-67.77507 Y45.82464
G1 Z2.50000 F10.00000
G2 X-67.77507 Y45.82464 Z-0.00000 I-0.04991 J0.00000
G2 X-67.77507 Y45.82464 Z-2.50000 I-0.04991 J0.00000
G2 X-67.77507 Y45.82464 I-0.04991 J0.00000
G0 Z2.00000

G0 X-70.31507 Y45.82464
G1 Z2.50000 F10.00000
G2 X-70.31507 Y45.82464 Z-0.00000 I-0.04991 J0.00000
G2 X-70.31507 Y45.82464 Z-2.50000 I-0.04991 J0.00000
G2 X-70.31507 Y45.82464 I-0.04991 J0.00000
G0 Z2.00000

G0 X-72.85507 Y45.82464
G1 Z2.50000 F10.00000
G2 X-72.85507 Y45.82464 Z-0.00000 I-0.04991 J0.00000
G2 X-72.85507 Y45.82464 Z-2.50000 I-0.04991 J0.00000
G2 X-72.85507 Y45.82464 I-0.04991 J0.00000
G0 Z2.00000

G0 X-76.19517 Y40.82592
G1 Z2.50000 F10.00000
G2 X-76.19517 Y40.82592 Z-0.00000 I-0.04991 J0.00000
G2 X-76.19517 Y40.82592 Z-2.50000 I-0.04991 J0.00000
G2 X-76.19517 Y40.82592 I-0.04991 J0.00000
G0 Z2.00000

G0 X-78.73517 Y40.82592
G1 Z2.50000 F10.00000
G2 X-78.73517 Y40.82592 Z-0.00000 I-0.04991 J0.00000
G2 X-78.73517 Y40.82592 Z-2.50000 I-0.04991 J0.00000
G2 X-78.73517 Y40.82592 I-0.04991 J0.00000
G0 Z2.00000

G0 X-81.27517 Y40.82592
G1 Z2.50000 F10.00000
G2 X-81.27517 Y40.82592 Z-0.00000 I-0.04991 J0.00000
G2 X-81.27517 Y40.82592 Z-2.50000 I-0.04991 J0.00000
G2 X-81.27517 Y40.82592 I-0.04991 J0.00000
G0 Z2.00000

G0 X-86.77427 Y42.32452
G1 Z2.50000 F10.00000
G2 X-86.77427 Y42.32452 Z-0.00000 I-0.04991 J0.00000
G2 X-86.77427 Y42.32452 Z-2.50000 I-0.04991 J0.00000
G2 X-86.77427 Y42.32452 I-0.04991 J0.00000
G0 Z2.00000

G0 X-84.27491 Y45.82464
G1 Z2.50000 F10.00000
G2 X-84.27491 Y45.82464 Z-0.00000 I-0.04991 J0.00000
G2 X-84.27491 Y45.82464 Z-2.50000 I-0.04991 J0.00000
G2 X-84.27491 Y45.82464 I-0.04991 J0.00000
G0 Z2.00000

G0 X-86.81491 Y45.82464
G1 Z2.50000 F10.00000
G2 X-86.81491 Y45.82464 Z-0.00000 I-0.04991 J0.00000
G2 X-86.81491 Y45.82464 Z-2.50000 I-0.04991 J0.00000
G2 X-86.81491 Y45.82464 I-0.04991 J0.00000
G0 Z2.00000

G0 X-89.35491 Y45.82464
G1 Z2.50000 F10.00000
G2 X-89.35491 Y45.82464 Z-0.00000 I-0.04991 J0.00000
G2 X-89.35491 Y45.82464 Z-2.50000 I-0.04991 J0.00000
G2 X-89.35491 Y45.82464 I-0.04991 J0.00000
G0 Z2.00000

G0 X-92.69501 Y40.82592
G1 Z2.50000 F10.00000
G2 X-92.69501 Y40.82592 Z-0.00000 I-0.04991 J0.00000
G2 X-92.69501 Y40.82592 Z-2.50000 I-0.04991 J0.00000
G2 X-92.69501 Y40.82592 I-0.04991 J0.00000
G0 Z2.00000

G0 X-95.27565 Y35.48430
G1 Z2.50000 F10.00000
G2 X-95.27565 Y35.48430 Z-0.00000 I-0.04991 J0.00000
G2 X-95.27565 Y35.48430 Z-2.50000 I-0.04991 J0.00000
G2 X-95.27565 Y35.48430 I-0.04991 J0.00000
G0 Z2.00000

G0 X-95.23501 Y40.82592
G1 Z2.50000 F10.00000
G2 X-95.23501 Y40.82592 Z-0.00000 I-0.04991 J0.00000
G2 X-95.23501 Y40.82592 Z-2.50000 I-0.04991 J0.00000
G2 X-95.23501 Y40.82592 I-0.04991 J0.00000
G0 Z2.00000

G0 X-97.77501 Y40.82592
G1 Z2.50000 F10.00000
G2 X-97.77501 Y40.82592 Z-0.00000 I-0.04991 J0.00000
G2 X-97.77501 Y40.82592 Z-2.50000 I-0.04991 J0.00000
G2 X-97.77501 Y40.82592 I-0.04991 J0.00000
G0 Z2.00000

G0 X-101.27513 Y45.82464
G1 Z2.50000 F10.00000
G2 X-101.27513 Y45.82464 Z-0.00000 I-0.04991 J0.00000
G2 X-101.27513 Y45.82464 Z-2.50000 I-0.04991 J0.00000
G2 X-101.27513 Y45.82464 I-0.04991 J0.00000
G0 Z2.00000

G0 X-103.81513 Y45.82464
G1 Z2.50000 F10.00000
G2 X-103.81513 Y45.82464 Z-0.00000 I-0.04991 J0.00000
G2 X-103.81513 Y45.82464 Z-2.50000 I-0.04991 J0.00000
G2 X-103.81513 Y45.82464 I-0.04991 J0.00000
G0 Z2.00000

G0 X-106.35513 Y45.82464
G1 Z2.50000 F10.00000
G2 X-106.35513 Y45.82464 Z-0.00000 I-0.04991 J0.00000
G2 X-106.35513 Y45.82464 Z-2.50000 I-0.04991 J0.00000
G2 X-106.35513 Y45.82464 I-0.04991 J0.00000
G0 Z2.00000

G0 X-103.77449 Y42.32452
G1 Z2.50000 F10.00000
G2 X-103.77449 Y42.32452 Z-0.00000 I-0.04991 J0.00000
G2 X-103.77449 Y42.32452 Z-2.50000 I-0.04991 J0.00000
G2 X-103.77449 Y42.32452 I-0.04991 J0.00000
G0 Z2.00000

G00 Z10.000 ( All done -- retract )

M5      (Spindle off.)
G04 P1.000000
M9      (Coolant off.)
M2      (Program end.)

